!!!OTL: Quartett in B für 2 Violinen, Viola und Violoncello, 4. Satz, KV 458/04
!!!system-decoration: [(s1,s2,s3,s4)]
**kern	**kern	**kern	**kern	**dynam	**kern	**kern	**kern	**kern	**dynam	**kern	**kern	**kern	**kern	**dynam	**kern	**kern	**kern	**kern	**dynam
*part4	*part4	*part4	*part4	*part4	*part3	*part3	*part3	*part3	*part3	*part2	*part2	*part2	*part2	*part2	*part1	*part1	*part1	*part1	*part1
*staff16	*staff15	*staff14	*staff13	*	*staff12	*staff11	*staff10	*staff9	*	*staff8	*staff7	*staff6	*staff5	*	*staff4	*staff3	*staff2	*staff1	*
*I"Violoncello	*	*	*	*	*I"Viola	*	*	*	*	*I"Violino II	*	*	*	*	*I"Violino I	*	*	*	*
*clefF4	*	*clefC3	*	*clefG2	*	*clefG2	*
*k[b-e-]	*	*k[b-e-]	*	*k[b-e-]	*	*k[b-e-]	*
*M2/4	*	*M2/4	*	*M2/4	*	*M2/4	*
2r	.	2r	.	2r	.	(4b-y	.
.	.	.	.	.	.	4cc)	.
=2	=2	=2	=2	=2	=2	=2	=2
.	.	.	.	.	.	(<16qb-y	.
2r	.	2r	.	2r	.	8aL)	.
.	.	.	.	.	.	16g	.
.	.	.	.	.	.	16fJ	.
.	.	.	.	.	.	8b-yL	.
.	.	.	.	.	.	8b-yJ	.
=3	=3	=3	=3	=3	=3	=3	=3
2r	.	8AL	.	8fL	.	8ccL	.
.	.	8A	.	8f	.	8cc	.
.	.	8B-y	.	8f	.	8dd	.
.	.	8B-yJ	.	8fJ	.	8ddJ	.
=4	=4	=4	=4	=4	=4	=4	=4
2r	.	(8dL	.	4f	.	(8ffL	.
.	.	8cJ)	.	.	.	8ee-yJ)	.
.	.	8A	.	4r	.	8cc	.
.	.	8r	.	.	.	8r	.
=5	=5	=5	=5	=5	=5	=5	=5
2r	.	2r	.	2r	.	(4b-y	.
.	.	.	.	.	.	4cc)	.
=6	=6	=6	=6	=6	=6	=6	=6
.	.	.	.	.	.	(<16qb-y	.
2r	.	2r	.	2r	.	8aL)	.
.	.	.	.	.	.	16g	.
.	.	.	.	.	.	16fJ	.
.	.	.	.	.	.	8b-yL	.
.	.	.	.	.	.	8b-yJ	.
=7	=7	=7	=7	=7	=7	=7	=7
2r	.	8E-yL	.	8gL	.	8ccL	.
.	.	8E-y	.	8g	.	8cc	.
.	.	8F	.	8A	.	8f	.
.	.	8FJ	.	8AJ	.	8fJ	.
=8	=8	=8	=8	=8	=8	=8	=8
2r	.	4B-y	.	4B-y	.	4d	.
.	.	4r	.	4r	.	4r	.
=9	=9	=9	=9	=9	=9	=9	=9
2r	.	2r	.	(4b-y	.	(4bb-y	.
.	.	.	.	4cc)	.	4ccc)	.
=10	=10	=10	=10	=10	=10	=10	=10
.	.	.	.	(<16qb-y	.	.	.
.	.	.	.	.	.	(<16qbb-y	.
2r	.	2r	.	8aL)	.	8aaL)	.
.	.	.	.	16g	.	16gg	.
.	.	.	.	16fJ	.	16ffJ	.
.	.	.	.	8b-yL	.	8bb-yL	.
.	.	.	.	8b-yJ	.	8bb-yJ	.
!!LO:LB
=11	=11	=11	=11	=11	=11	=11	=11
8AL	.	8fL	.	8ccL	.	8cccL	.
8A	.	8f	.	8cc	.	8ccc	.
8B-y	.	8f	.	8dd	.	8ddd	.
8B-yJ	.	8fJ	.	8ddJ	.	8dddJ	.
=12	=12	=12	=12	=12	=12	=12	=12
(8dL	.	4f	.	(8ffL	.	(8fffL	.
8cJ)	.	.	.	8ee-yJ)	.	8eee-yJ)	.
8A	.	4r	.	8cc	.	8ccc	.
8r	.	.	.	8r	.	8r	.
=13	=13	=13	=13	=13	=13	=13	=13
2r	.	2r	.	(4b-y	.	(4bb-y	.
.	.	.	.	4cc)	.	4ccc)	.
=14	=14	=14	=14	=14	=14	=14	=14
.	.	.	.	(<16qb-y	.	.	.
.	.	.	.	.	.	(<16qbb-y	.
2r	.	2r	.	8aL)	.	8aaL)	.
.	.	.	.	16g	.	16gg	.
.	.	.	.	16fJ	.	16ffJ	.
.	.	.	.	8b-yL	.	8bb-yL	.
.	.	.	.	8b-yJ	.	8bb-yJ	.
=15	=15	=15	=15	=15	=15	=15	=15
8E-yL	.	8gL	.	8ccL	.	8cccL	.
8E-y	.	8g	.	8cc	.	8ccc	.
8F	.	8A	.	8f	.	8ff	.
8FJ	.	8AJ	.	8fJ	.	8ffJ	.
=16	=16	=16	=16	=16	=16	=16	=16
4BB-y	.	4B-y	.	4d	.	4dd	.
8r	.	8r	.	4r	.	4r	.
(8B-y	.	(8b-y	.	.	.	.	.
=17	=17	=17	=17	=17	=17	=17	=17
8cL)	.	8ccL)	.	2r	.	2r	.
8c'	.	8cc'	.	.	.	.	.
8F'	.	8f'	.	.	.	.	.
8F'J	.	8f'J	.	.	.	.	.
=18	=18	=18	=18	=18	=18	=18	=18
4D	.	4d	.	(8fL	.	(8ffL	.
.	.	.	.	8d	.	8dd	.
8r	.	8r	.	8B-yJ)	.	8b-yJ)	.
(8B-y	.	(8b-y	.	8r	.	8r	.
=19	=19	=19	=19	=19	=19	=19	=19
8cL)	.	8ccL)	.	2r	.	2r	.
8c	.	8cc	.	.	.	.	.
8F	.	8f	.	.	.	.	.
8FJ	.	8fJ	.	.	.	.	.
=20	=20	=20	=20	=20	=20	=20	=20
4D	.	4d	.	(8fL	.	(8ffL	.
.	.	.	.	8d	.	8dd	.
8r	.	8r	.	8b-yJ)	.	8bb-yJ)	.
(8B-y	.	(8b-y	.	8r	.	8r	.
!!LO:LB
=21	=21	=21	=21	=21	=21	=21	=21
8cL)	.	8ccL)	.	2r	.	2r	.
8c	.	8cc	.	.	.	.	.
8F	.	8f	.	.	.	.	.
8FJ	.	8fJ	.	.	.	.	.
=22	=22	=22	=22	=22	=22	=22	=22
4.D	.	4.d	.	(8.fL	.	(8.ffL	.
.	.	.	.	32g	.	32gg	.
.	.	.	.	32aJ	.	32aaJ	.
.	.	.	.	8b-yL)	.	8bb-yL)	.
8D'	.	8f'	.	8a'J	.	8aa'J	.
=23	=23	=23	=23	=23	=23	=23	=23
8E-y'L	.	8e-y'L	.	8g'L	.	8gg'L	.
8F'	.	8d'	.	8f'	.	8ff'	.
8G'	.	8c'	.	8e-y'	.	8ee-y'	.
8En'J	.	8B-y'J	.	8d'J	.	8dd'J	.
=24	=24	=24	=24	=24	=24	=24	=24
4F	.	(8dL	.	(8fL	.	(8ffL	.
.	.	8B-yJ)	.	8dJ)	.	8ddJ)	.
4r	.	8A	.	8cL	.	8ccL	.
.	.	8r	.	(8b-yJ	.	(8bb-yJ	.
=25	=25	=25	=25	=25	=25	=25	=25
2r	.	2r	.	8ccL)	.	8cccL)	.
.	.	.	.	8cc	.	8ccc	.
.	.	.	.	8f	.	8ff	.
.	.	.	.	8fJ	.	8ffJ	.
=26	=26	=26	=26	=26	=26	=26	=26
(8FL	.	(8fL	.	4d	.	4dd	.
8D	.	8d	.	.	.	.	.
8BB-yJ)	.	8B-yJ)	.	8r	.	8r	.
8r	.	8r	.	(8b-y	.	(8bb-y	.
=27	=27	=27	=27	=27	=27	=27	=27
2r	.	2r	.	8ccL)	.	8cccL)	.
.	.	.	.	8cc	.	8ccc	.
.	.	.	.	8f	.	8ff	.
.	.	.	.	8fJ	.	8ffJ	.
=28	=28	=28	=28	=28	=28	=28	=28
(8FL	.	(8fL	.	4d	.	4dd	.
8D	.	8d	.	.	.	.	.
8B-yJ)	.	8b-yJ)	.	8r	.	8r	.
8r	.	8r	.	(8b-y	.	(8bb-y	.
=29	=29	=29	=29	=29	=29	=29	=29
2r	.	2r	.	8ccL)	.	8cccL)	.
.	.	.	.	8cc	.	8ccc	.
.	.	.	.	8f	.	8ff	.
.	.	.	.	8fJ	.	8ffJ	.
!!LO:LB
=30	=30	=30	=30	=30	=30	=30	=30
(4.F#	.	[2c	.	(4.d	.	(4.dd	.
8G	.	.	.	8e-y	.	8ee-y	.
=31	=31	=31	=31	=31	=31	=31	=31
8F#L	.	2c]	.	8dL	.	8ddL	.
8G	.	.	.	8e-y	.	8ee-y	.
8F#y	.	.	.	8d	.	8dd	.
8AJ)	.	.	.	8f#J)	.	8ff#J)	.
=32	=32	=32	=32	=32	=32	=32	=32
4G	.	4B-y	.	8.gLT	.	8.ggLT	.
.	.	.	.	16aJ	.	16aaJ	.
8r	.	8r	.	8b-yL	.	8bb-yL	.
(8Fn	.	(8A-	.	(8d-J	.	(8dd-J	.
=33	=33	=33	=33	=33	=33	=33	=33
8EnL	.	8GL	.	8cL	.	8ccL	.
8F	.	8A-	.	8d-	.	8dd-	.
8E	.	8G	.	8c	.	8cc	.
8GJ)	.	8B-yJ)	.	8enJ)	.	8eenJ)	.
=34	=34	=34	=34	=34	=34	=34	=34
4F	.	4A-	.	8.fLT	.	8.ffLT	.
.	.	.	.	16gJ	.	16ggJ	.
4r	.	4r	.	8a-	.	8aa-L	.
.	.	.	.	8r	.	8ccJ	.
=35	=35	=35	=35	=35	=35	=35	=35
2r	.	2r	.	2r	.	(8ffL	.
.	.	.	.	.	.	8ee-	.
.	.	.	.	.	.	8dd-	.
.	.	.	.	.	.	8ccJ)	.
=36	=36	=36	=36	=36	=36	=36	=36
2r	.	8d-L	.	8fL	.	(8ccL	.
.	.	8d-y	.	8f	.	8bnJ)	.
.	.	8d-y	.	8f	.	8r	.
.	.	8d-yJ	.	8fJ	.	8b	.
=37	=37	=37	=37	=37	=37	=37	=37
2r	.	8dL	.	8fL	.	(8ffL	.
.	.	8d-y	.	8f	.	8gg	.
.	.	8d-y	.	8f	.	8aa-)	.
.	.	8d-yJ	.	8fJ	.	8bnJ	.
=38	=38	=38	=38	=38	=38	=38	=38
2r	.	8cL	.	8enL	.	(8ddnL	.
.	.	8c	.	8e	.	8ccJ)	.
.	.	8c	.	8e	.	8r	.
.	.	8cJ	.	8eJ	.	8cc	.
=39	=39	=39	=39	=39	=39	=39	=39
2r	.	8cL	.	8eL	.	(8ddL	.
.	.	8c	.	8e	.	8een	.
.	.	8c	.	8e	.	8ff	.
.	.	8cJ	.	8eJ	.	8ggJ	.
=40	=40	=40	=40	=40	=40	=40	=40
2r	.	8BnL	.	8dL	.	8bb-yL	.
.	.	8B	.	8d	.	8aa-J)	.
.	.	8B	.	8d	.	8r	.
.	.	8BJ	.	8dJ	.	(8aa-y	.
=41	=41	=41	=41	=41	=41	=41	=41
2r	.	8BL	.	8dL	.	8ggL	.
.	.	8B	.	8d	.	8aa-	.
.	.	8B	.	8d	.	8gg	.
.	.	8BJ	.	8dJ	.	8ffJ)	.
=42	=42	=42	=42	=42	=42	=42	=42
2r	.	4c	.	4c	.	(8eenL	.
.	.	.	.	.	.	8gg)	.
.	.	8r	.	8r	.	8gg	.
.	.	(8d-	.	(8bn	.	8ffJ	.
=43	=43	=43	=43	=43	=43	=43	=43
2r	.	4c)	.	4cc)	.	(8eenL	.
.	.	.	.	.	.	8gg)	.
.	.	8r	.	8r	.	8gg	.
.	.	(8d-	.	(8bn	.	8ffJ	.
=44	=44	=44	=44	=44	=44	=44	=44
4r	.	4c)	.	4cc)	.	(8eenL	.
.	.	.	.	.	.	8gg)	.
8r	.	8r	.	8r	.	8gg	.
8G	.	8g	.	8ff' 8dd'	.	8bbn'J	.
=45	=45	=45	=45	=45	=45	=45	=45
8cL	.	8gL	.	8eenL 8cc	.	8ccc'L	.
8G	.	8g	.	8ff 8dd	.	8bbn'	.
8c	.	8g	.	8ee 8cc	.	8ccc'	.
8GJ	.	8gJ	.	8ffJ 8dd	.	8bb'J	.
=46	=46	=46	=46	=46	=46	=46	=46
4c	.	4g	.	4een 4cc	.	4ccc	.
4r	.	4r	.	4r	.	8r	.
.	.	.	.	.	.	(8bn	.
=47	=47	=47	=47	=47	=47	=47	=47
2r	.	2r	.	2r	.	8ccL	.
.	.	.	.	.	.	8cc#	.
.	.	.	.	.	.	8dd	.
.	.	.	.	.	.	8b-J)	.
!!LO:LB
=48	=48	=48	=48	=48	=48	=48	=48
(4.F	.	[2c	.	(4.a	.	4a	.
.	.	.	.	.	.	4r	.
8A)	.	.	.	8cc)	.	.	.
=49	=49	=49	=49	=49	=49	=49	=49
8En'L	.	2c_	.	8g'L	.	2r	.
8E'	.	.	.	8g'	.	.	.
8E'	.	.	.	8g'	.	.	.
8F#'J	.	.	.	8a'J	.	.	.
=50	=50	=50	=50	=50	=50	=50	=50
(8AL	.	4c]	.	(8ccL	.	8r	.
8GJ)	.	.	.	8b-yJ)	.	(16ccL	.
.	.	.	.	.	.	16ddJ	.
8G	.	4r	.	8b-y	.	8eenL)	.
8r	.	.	.	8r	.	(16ee	.
.	.	.	.	.	.	16ffJ	.
=51	=51	=51	=51	=51	=51	=51	=51
2r	.	2r	.	2r	.	8ggL)	.
.	.	.	.	.	.	(16een	.
.	.	.	.	.	.	16ffJ	.
.	.	.	.	.	.	8ggL)	.
.	.	.	.	.	.	(16gg	.
.	.	.	.	.	.	16aaJ	.
=52	=52	=52	=52	=52	=52	=52	=52
(4.G	.	[2c	.	(4.b-y	.	4bb-y)	.
.	.	.	.	.	.	4r	.
8B-y)	.	.	.	8dd)	.	.	.
=53	=53	=53	=53	=53	=53	=53	=53
8FnL	.	2c]	.	8aL	.	2r	.
8F	.	.	.	8a	.	.	.
8F	.	.	.	8a	.	.	.
8GJ	.	.	.	8b-yJ	.	.	.
=54	=54	=54	=54	=54	=54	=54	=54
(8B-yL	.	(8enL	.	(8ddL	.	8r	.
8AJ)	.	8fJ)	.	8ccJ)	.	(16ffL	.
.	.	.	.	.	.	16ggJ	.
8A	.	8f	.	8cc	.	8aaL)	.
8r	.	8r	.	8r	.	(16aa	.
.	.	.	.	.	.	16bb-yJ	.
=55	=55	=55	=55	=55	=55	=55	=55
2r	.	2r	.	2r	.	8cccL)	.
.	.	.	.	.	.	(16aa	.
.	.	.	.	.	.	16bb-yJ	.
.	.	.	.	.	.	8cccL)	.
.	.	.	.	.	.	(16ccc	.
.	.	.	.	.	.	16dddJ	.
=56	=56	=56	=56	=56	=56	=56	=56
2r	.	(4.f#	.	(4.a	.	4.eee-	.
.	.	8cc)	.	8ee-)	.	8ff#)	.
!!LO:LB
=57	=57	=57	=57	=57	=57	=57	=57
4r	.	8b-yL	.	8ddL	.	(4gg	.
.	.	8b-y	.	8dd	.	.	.
4D	.	8a	.	8cc	.	4aa)	.
.	.	8aJ	.	8ccJ	.	.	.
=58	=58	=58	=58	=58	=58	=58	=58
4GG	.	(8f#L	.	(8aL	.	(8ccc	.
.	.	8g)	.	8b-y)	.	4bb-y	.
4r	.	8g	.	8b-y	.	.	.
.	.	8b-yJ	.	8dd-J	.	8een)	.
=59	=59	=59	=59	=59	=59	=59	=59
4r	.	8aL	.	8ccL	.	(4ffn	.
.	.	8a	.	8cc	.	.	.
4C	.	8g	.	8b-y	.	4gg)	.
.	.	8gJ	.	8b-yJ	.	.	.
=60	=60	=60	=60	=60	=60	=60	=60
4FF	.	(8enL	.	(8gL	.	(8bb-yL	.
.	.	8fJ)	.	8aJ)	.	8aaJ)	.
4r	.	8r	.	8r	.	(4ccc	.
.	.	8f	.	8a	.	.	.
=61	=61	=61	=61	=61	=61	=61	=61
2r	.	8r	.	8r	.	4bb-y	.
.	.	8g	.	8b-y	.	.	.
.	.	8r	.	8r	.	4aa)	.
.	.	8a	.	8cc	.	.	.
=62	=62	=62	=62	=62	=62	=62	=62
4r	.	(2b-y	.	(2dd	.	(8aaL_	.
.	.	.	.	.	.	8gg	.
4B-y	.	.	.	.	.	8aa	.
.	.	.	.	.	.	8bb-yJ)	.
=63	=63	=63	=63	=63	=63	=63	=63
4c	.	4a	.	4cc	.	(8bb-y_	.
.	.	.	.	.	.	4ff	.
4C	.	4g)	.	4b-y)	.	.	.
.	.	.	.	.	.	8gg)	.
=64	=64	=64	=64	=64	=64	=64	=64
4F	.	(8enL	.	(8g#L	.	(8gg#L	.
.	.	8fJ)	.	8aJ)	.	8aaJ)	.
(4FF	.	(4A	.	8r	.	8r	.
.	.	.	.	[8cc	.	[8ccc	.
=65	=65	=65	=65	=65	=65	=65	=65
4GG	.	4B-y	.	(8cc_	.	(8ccc_	.
.	.	.	.	4b-y	.	4bb-y	.
4AA)	.	4c)	.	.	.	.	.
.	.	.	.	8a)	.	8aa)	.
!!LO:LB
=66	=66	=66	=66	=66	=66	=66	=66
(4BB-y	.	(4d	.	(8aL_	.	(8aaL_	.
.	.	.	.	8gnJ)	.	8ggnJ)	.
4GG	.	4B-y	.	8r	.	8r	.
.	.	.	.	[8dd	.	[8ddd	.
=67	=67	=67	=67	=67	=67	=67	=67
4AA	.	4c	.	(8dd_	.	(8ddd_	.
.	.	.	.	4cc	.	4ccc	.
4BB-y)	.	4d)	.	.	.	.	.
.	.	.	.	8b-y)	.	8bb-y)	.
=68	=68	=68	=68	=68	=68	=68	=68
(4C	.	(4e-	.	(8b-yL_	.	(8bb-yL_	.
.	.	.	.	8aJ)	.	8aaJ)	.
4AA	.	4c	.	8r	.	8r	.
.	.	.	.	[8ee-	.	[8eee-	.
=69	=69	=69	=69	=69	=69	=69	=69
4BB-y	.	4d	.	(8ee-y_	.	(8eee-y_	.
.	.	.	.	4dd	.	4ddd	.
4C)	.	4e-y)	.	.	.	.	.
.	.	.	.	8cc)	.	8ccc)	.
=70	=70	=70	=70	=70	=70	=70	=70
8DL	.	8f	.	(2b-y	.	(2bb-y	.
8D	.	4g	.	.	.	.	.
8D	.	.	.	.	.	.	.
8DJ	.	[8a-	.	.	.	.	.
=71	=71	=71	=71	=71	=71	=71	=71
8DL	.	8a-y]	.	2bn)	.	2bbn)	.
8D	.	4g	.	.	.	.	.
8D	.	.	.	.	.	.	.
8DJ	.	8f	.	.	.	.	.
=72	=72	=72	=72	=72	=72	=72	=72
8EnL	.	4g	.	(4.cc	.	8cccL	.
8E	.	.	.	.	.	8ggJ	.
8E	.	4r	.	.	.	[4bb-	.
8EJ	.	.	.	8dd-)	.	.	.
=73	=73	=73	=73	=73	=73	=73	=73
8FL	.	(4.cc	.	(8ccL	.	(4bb-y_	.
8F	.	.	.	8eenJ)	.	.	.
8F	.	.	.	4ff	.	4aa)	.
8FJ	.	8cc#)	.	.	.	.	.
=74	=74	=74	=74	=74	=74	=74	=74
8BB-yL	.	8ddL	.	4r	.	(16aaL_	.
.	.	.	.	.	.	16gg	.
8BB-y	.	8d	.	.	.	16ff#	.
.	.	.	.	.	.	16ggJ	.
8BB-y	.	8d	.	8r	.	16ff#yL	.
.	.	.	.	.	.	16gg	.
8BB-yJ	.	8dJ	.	(16ddL	.	16bb-y	.
.	.	.	.	16b-yJ)	.	16ggJ)	.
=75	=75	=75	=75	=75	=75	=75	=75
8CL	.	8cL	.	(4a	.	(4ffn	.
8C	.	8c	.	.	.	.	.
8C#	.	8B-y	.	4g)	.	4een)	.
8C#yJ	.	8B-yJ	.	.	.	.	.
=76	=76	=76	=76	=76	=76	=76	=76
4D	.	4A	.	4f	.	8ffL	.
.	.	.	.	.	.	(16aa	.
.	.	.	.	.	.	16ggJ	.
4r	.	4r	.	4r	.	16ffL	.
.	.	.	.	.	.	16een	.
.	.	.	.	.	.	16dd	.
.	.	.	.	.	.	16ccJ)	.
=77	=77	=77	=77	=77	=77	=77	=77
8r	.	8r	.	8r	.	2bn	.
8GL	.	8dL	.	8fL	.	.	.
8G	.	8d	.	8f	.	.	.
8GJ	.	8dJ	.	8fJ	.	.	.
=78	=78	=78	=78	=78	=78	=78	=78
4C	.	4c	.	4en	.	8r	.
.	.	.	.	.	.	(16ggL	.
.	.	.	.	.	.	16ffJ	.
8r	.	8r	.	8r	.	16eenL	.
.	.	.	.	.	.	16dd	.
8C	.	8en	.	8g	.	16cc	.
.	.	.	.	.	.	16b-J	.
=79	=79	=79	=79	=79	=79	=79	=79
4D	.	4f	.	4f	.	8aL)	.
.	.	.	.	.	.	(16ff	.
.	.	.	.	.	.	16eenJ	.
8r	.	8r	.	8r	.	16ddL	.
.	.	.	.	.	.	16cc	.
8AA	.	8c	.	8f	.	16b-y	.
.	.	.	.	.	.	16aJ	.
=80	=80	=80	=80	=80	=80	=80	=80
8BB-yL	.	8dL	.	8dL	.	8gL)	.
8BB-y	.	8G	.	8b-y	.	8dd	.
8C	.	8A	.	8a	.	8cc	.
8CJ	.	8B-yJ	.	8gJ	.	8enJ	.
=81	=81	=81	=81	=81	=81	=81	=81
4FF	.	4A	.	4f	.	4f	.
4r	.	4r	.	4r	.	8r	.
.	.	.	.	.	.	(8c	.
=82	=82	=82	=82	=82	=82	=82	=82
(4F	.	[2c	.	(2f	.	4.a)	.
4C	.	.	.	.	.	.	.
.	.	.	.	.	.	(8f	.
=83	=83	=83	=83	=83	=83	=83	=83
4G	.	2c_	.	2en)	.	4.b-y)	.
4C)	.	.	.	.	.	.	.
.	.	.	.	.	.	(8g	.
!!LO:LB
=84	=84	=84	=84	=84	=84	=84	=84
(8AL	cresc.	(8cL_	cresc.	(8fL	cresc.	8ccL	cresc.
8F	.	8A	.	8a	.	8ff	.
8B-y	.	8d	.	8f	.	8dd	.
8GJ)	.	8B-yJ)	.	8b-yJ)	.	8ggJ)	.
=85	=85	=85	=85	=85	=85	=85	=85
(4c	.	(4.c	.	(4a	.	(4ff	.
4B-y)	.	.	.	4g)	.	8eenL)	.
.	.	8en)	.	.	.	8ccJ	.
=86	=86	=86	=86	=86	=86	=86	=86
(2A	.	(2f	.	[2c	.	(12ffL	.
.	.	.	.	.	.	12aa	.
.	.	.	.	.	.	12ggJ	.
.	.	.	.	.	.	12ffL	.
.	.	.	.	.	.	12een	.
.	.	.	.	.	.	12ddJ	.
=87	=87	=87	=87	=87	=87	=87	=87
2En)	.	2g)	.	2c_	.	12ccL	.
.	.	.	.	.	.	12bn	.
.	.	.	.	.	.	12ccJ	.
.	.	.	.	.	.	12cc#L	.
.	.	.	.	.	.	12dd	.
.	.	.	.	.	.	12b-J)	.
=88	=88	=88	=88	=88	=88	=88	=88
(4F	.	[4f	.	(8.cL_	.	(12aL	.
.	.	.	.	.	.	12cc	.
.	.	.	.	.	.	12fJ	.
.	.	.	.	16AJ)	.	.	.
4BB-y)	.	(8.fL_	.	(12B-yL	.	12ddL	.
.	.	.	.	12d	.	12b-y	.
.	.	.	.	12B-yJ)	.	12gJ)	.
.	.	16dJ)	.	.	.	.	.
=89	=89	=89	=89	=89	=89	=89	=89
4C	.	4c	.	(4A	.	(4f	.
4r	.	4r	.	8G)	.	8enL)	.
.	.	.	.	8r	.	(8cJ	.
=90	=90	=90	=90	=90	=90	=90	=90
(4F	.	[2c	.	(2f	.	8a)	.
.	.	.	.	.	.	(4a	.
4C	.	.	.	.	.	.	.
.	.	.	.	.	.	8f	.
=91	=91	=91	=91	=91	=91	=91	=91
4G	.	2c_	.	2en)	.	8b-y)	.
.	.	.	.	.	.	(4b-y	.
4C)	.	.	.	.	.	.	.
.	.	.	.	.	.	8g	.
=92	=92	=92	=92	=92	=92	=92	=92
(8AL	cresc.	(8cL_	cresc.	(8fL	cresc.	8ccL	cresc.
8F	.	8A	.	8a	.	8ff	.
8B-y	.	8d	.	8f	.	8dd	.
8GJ)	.	8B-yJ)	.	8b-yJ)	.	8ggJ)	.
=93	=93	=93	=93	=93	=93	=93	=93
(4c	.	(4.c	.	(4a	.	(4ff	.
4B-y)	.	.	.	4g)	.	8eenL)	.
.	.	8en)	.	.	.	8ccJ	.
!!LO:LB
=94	=94	=94	=94	=94	=94	=94	=94
2A	.	[2f	.	2c	.	(12ffL	.
.	.	.	.	.	.	12aa	.
.	.	.	.	.	.	12ggJ	.
.	.	.	.	.	.	12ffL	.
.	.	.	.	.	.	12een	.
.	.	.	.	.	.	12ffJ)	.
=95	=95	=95	=95	=95	=95	=95	=95
(4B-y	.	2f]	.	4B-y	.	(12ddL	.
.	.	.	.	.	.	12cc#	.
.	.	.	.	.	.	12ddJ	.
4d)	.	.	.	[4f	.	12b-yL	.
.	.	.	.	.	.	12a	.
.	.	.	.	.	.	12b-yJ)	.
=96	=96	=96	=96	=96	=96	=96	=96
4c	.	(4.c	.	(12fL_	.	(12aL	.
.	.	.	.	12b-y	.	12dd	.
.	.	.	.	12aJ	.	12ccnJ	.
4C	.	.	.	12gL	.	12b-yL	.
.	.	.	.	12f	.	12a	.
.	.	8B-y)	.	.	.	.	.
.	.	.	.	12enJ)	.	12gJ)	.
=97	=97	=97	=97	=97	=97	=97	=97
4F	.	8AL	.	4f	.	4f	.
.	.	8C'	.	.	.	.	.
8r	.	8F'	.	8r	.	4r	.
(8F	.	8A'J	.	(8f	.	.	.
=98	=98	=98	=98	=98	=98	=98	=98
8GL)	.	4B-y	.	8enL	.	4r	.
8G'	.	.	.	8g	.	.	.
8C'	.	8r	.	8b-y	.	8r	.
8C'J	.	(8En	.	8gJ)	.	8cc	.
=99	=99	=99	=99	=99	=99	=99	=99
4AA	.	8FL)	.	(8aL	.	(8ffL	.
.	.	8C'	.	8ccJ)	.	8een	.
8r	.	8F'	.	8r	.	8dd	.
(8F	.	8A'J	.	(8f	.	8ccJ)	.
=100	=100	=100	=100	=100	=100	=100	=100
8GL)	.	4B-y	.	8enL	.	4.cc	.
8G	.	.	.	8g	.	.	.
8C	.	8r	.	8b-y	.	.	.
8CJ	.	(8En	.	8gJ)	.	8cc	.
=101	=101	=101	=101	=101	=101	=101	=101
4AA	.	8FL)	.	(8aL	.	(8ffL	.
.	.	8C	.	8ccJ)	.	8een	.
8r	.	8F	.	8r	.	8dd	.
(8F	.	8AJ	.	(8f	.	8ccJ)	.
=102	=102	=102	=102	=102	=102	=102	=102
8GL)	.	4B-y	.	8enL	.	4.cc	.
8G	.	.	.	8g	.	.	.
8C	.	8r	.	8b-y	.	.	.
8CJ	.	8En	.	8gJ)	.	8cc	.
!!LO:LB
=103	=103	=103	=103	=103	=103	=103	=103
(4AA	.	(4F	.	(4cc	.	(8ccL	.
.	.	.	.	.	.	8ff	.
4BB-y)	.	4d)	.	4b-y)	.	8g	.
.	.	.	.	.	.	8ddJ)	.
=104	=104	=104	=104	=104	=104	=104	=104
2C	.	(4c	.	(4a	.	(4f	.
.	.	4B-y)	.	4en)	.	4g)	.
=105	=105	=105	=105	=105	=105	=105	=105
[4F	.	(4en	.	(4g	.	(4b-y	.
8F]	.	8fL)	.	8fL)	.	8a)	.
8r	.	(8FJ	.	(8ffJ	.	8r	.
=106	=106	=106	=106	=106	=106	=106	=106
4r	.	8EnL	.	8ggL)	.	4r	.
.	.	8G	.	8gg	.	.	.
8r	.	8B-y	.	8cc	.	8r	.
8C	.	8GJ)	.	8ccJ	.	(8een	.
=107	=107	=107	=107	=107	=107	=107	=107
(8FL	.	(8AL	.	4a	.	8ffL)	.
8En	.	8cJ)	.	.	.	8cc'	.
8D	.	8r	.	8r	.	8ff'	.
8CJ)	.	(8F	.	(8ff	.	8aa'J	.
=108	=108	=108	=108	=108	=108	=108	=108
4.C	.	8EnL	.	8ggL)	.	4bb-y	.
.	.	8G	.	8gg	.	.	.
.	.	8B-y	.	8cc	.	8r	.
8C	.	8GJ)	.	8ccJ	.	(8een	.
=109	=109	=109	=109	=109	=109	=109	=109
(8FL	.	(8AL	.	4a	.	8ffL)	.
8En	.	8cJ)	.	.	.	8cc'	.
8D	.	8r	.	8r	.	8ff'	.
8CJ)	.	(8F	.	(8ff	.	8aa'J	.
=110	=110	=110	=110	=110	=110	=110	=110
4.C	.	8EnL	.	8ggL)	.	4bb-y	.
.	.	8G	.	8gg	.	.	.
.	.	8B-y	.	8cc	.	8r	.
8BB-y	.	8GJ)	.	8ccJ	.	(8een	.
=111	=111	=111	=111	=111	=111	=111	=111
4AA	.	8FL	.	(4cc	.	8ffL)	.
.	.	8f	.	.	.	8ccc	.
4BB-y	.	8F	.	4b-y)	.	8dd	.
.	.	8fJ	.	.	.	8dddJ	.
=112	=112	=112	=112	=112	=112	=112	=112
8CL	.	(4f	.	8AL	.	(4cc	.
8c	.	.	.	8a	.	.	.
8BB-y	.	4c)	.	8G	.	4een)	.
8B-yJ	.	.	.	8gJ	.	.	.
=113	=113	=113	=113	=113	=113	=113	=113
8AAL	.	16cL	.	16fL	.	2ccc	.
.	.	16c	.	16f	.	.	.
8A	.	16c	.	16f	.	.	.
.	.	16cJ	.	16fJ	.	.	.
8A	.	16cL	.	16fL	.	.	.
.	.	16c	.	16f	.	.	.
8AJ	.	16c	.	16f	.	.	.
.	.	16cJ	.	16fJ	.	.	.
=114	=114	=114	=114	=114	=114	=114	=114
.	.	.	.	.	.	(<16qccc	.
8BB-yL	.	16dL	.	16fL	.	8bb-yL)	.
.	.	16d	.	16f	.	.	.
8B-y	.	16d	.	16f	.	16aa	.
.	.	16dJ	.	16fJ	.	16ggJ	.
.	.	.	.	.	.	(<16qgg	.
8B-y	.	16fL	.	16gL	.	8ffL)	.
.	.	16f	.	16g	.	.	.
8B-yJ	.	16f	.	16g	.	16een	.
.	.	16fJ	.	16gJ	.	16ddJ	.
=115	=115	=115	=115	=115	=115	=115	=115
8CL	.	16fL	.	16aL	.	2cc	.
.	.	16f	.	16a	.	.	.
8c	.	16f	.	16a	.	.	.
.	.	16fJ	.	16aJ	.	.	.
8c	.	16fL	.	16aL	.	.	.
.	.	16f	.	16a	.	.	.
8cJ	.	16f	.	16a	.	.	.
.	.	16fJ	.	16aJ	.	.	.
=116	=116	=116	=116	=116	=116	=116	=116
8C#L	.	16enL	.	16gL	.	2b-y	.
.	.	16e	.	16g	.	.	.
8c#	.	16e	.	16g	.	.	.
.	.	16eJ	.	16gJ	.	.	.
8c#y	.	16eL	.	16gL	.	.	.
.	.	16e	.	16g	.	.	.
8c#yJ	.	16e	.	16g	.	.	.
.	.	16eJ	.	16gJ	.	.	.
=117	=117	=117	=117	=117	=117	=117	=117
8DL	.	4f	.	(16fL	.	2a	.
.	.	.	.	16en	.	.	.
8d	.	.	.	16f	.	.	.
.	.	.	.	16eJ	.	.	.
8d	.	4r	.	8f)	.	.	.
8dJ	.	.	.	8r	.	.	.
=118	=118	=118	=118	=118	=118	=118	=118
8BBnL	.	(16fL	.	(16a-L	.	2ddd	.
.	.	16en	.	16g	.	.	.
8Bn	.	16f	.	16a-y	.	.	.
.	.	16eJ	.	16gJ	.	.	.
8B	.	8f)	.	8a-y)	.	.	.
8BJ	.	8r	.	8r	.	.	.
!!LO:LB
=119	=119	=119	=119	=119	=119	=119	=119
8CL	.	(16fL	.	(16anL	.	2ccc	.
.	.	16en	.	16g#	.	.	.
8c	.	16f	.	16a	.	.	.
.	.	16eJ	.	16g#yJ	.	.	.
8c	.	8fL)	.	8aL)	.	.	.
8cJ	.	8fJ	.	8aJ	.	.	.
=120	=120	=120	=120	=120	=120	=120	=120
8CCL	.	(16gL	.	(16b-yL	.	2een	.
.	.	16f#	.	16a	.	.	.
8C	.	16g	.	16b-y	.	.	.
.	.	16f#yJ	.	16aJ	.	.	.
8C	.	8gL)	.	8b-yL)	.	.	.
8CJ	.	8gJ	.	8b-yJ	.	.	.
=121	=121	=121	=121	=121	=121	=121	=121
4FF	.	4fn	.	4a	.	4ff	.
4r	.	4r	.	4r	.	4r	.
=122	=122	=122	=122	=122	=122	=122	=122
2r	.	(4A	.	(4c	.	(4f	.
.	.	4B-y)	.	4d)	.	4g)	.
=123	=123	=123	=123	=123	=123	=123	=123
.	.	.	.	.	.	(<16qf	.
(4C	.	(4G	.	(4B-y	.	8enL)	.
.	.	.	.	.	.	16d	.
.	.	.	.	.	.	16cJ	.
4D)	.	4F)	.	4A)	.	8fL	.
.	.	.	.	.	.	8fJ	.
=124	=124	=124	=124	=124	=124	=124	=124
8BB-yL	.	8dL	.	8fL	.	8gL	.
8BB-y	.	8d	.	8f	.	8g	.
8C	.	8e-	.	8f	.	8a	.
8CJ	.	8e-yJ	.	8fJ	.	8aJ	.
=125	=125	=125	=125	=125	=125	=125	=125
4D	.	4d	.	4f	.	(4cc	.
4r	.	4r	.	4r	.	8b-y)	.
.	.	.	.	.	.	8r	.
=126	=126	=126	=126	=126	=126	=126	=126
4r	.	4r	.	4r	.	(4b-y	.
(4BB-y	.	(4en	.	(4g	.	4dd)	.
=127	=127	=127	=127	=127	=127	=127	=127
4AA)	.	4f)	.	4a)	.	(8ccL	.
.	.	.	.	.	.	16dd	.
.	.	.	.	.	.	16eenJ	.
8r	.	8r	.	8r	.	8ffL)	.
8D	.	8A	.	8f	.	8fJ	.
=128	=128	=128	=128	=128	=128	=128	=128
8BB-yL	.	8dL	.	8fL	.	8gL	.
8BB-y	.	8d	.	8f	.	8g	.
8C	.	8c	.	8en	.	8cc	.
8CJ	.	8B-yJ	.	8eJ	.	8ccJ	.
!!LO:LB
=129	=129	=129	=129	=129	=129	=129	=129
4F	.	4A	.	4f	.	4f	.
4r	.	4r	.	8r	.	8r	.
.	.	.	.	(8ff	.	(8aa	.
=130	=130	=130	=130	=130	=130	=130	=130
2r	.	2r	.	8aaL	.	8cccL	.
.	.	.	.	8ff	.	8aa	.
.	.	.	.	8aa	.	8ccc	.
.	.	.	.	8ffJ	.	8aaJ	.
=131	=131	=131	=131	=131	=131	=131	=131
4r	.	4r	.	4aa)	.	4ccc)	.
8r	.	8r	.	8r	.	8r	.
8C	.	8B-y'	.	8en 8c	.	8g'	.
=132	=132	=132	=132	=132	=132	=132	=132
8FL	.	8A'L	.	8fL 8c	.	8f'L	.
8C	.	8B-y'	.	8en 8c	.	8g'	.
8F	.	8A'	.	8f 8c	.	8f'	.
8CJ	.	8B-y'J	.	8eJ 8c	.	8g'J	.
=133	=133	=133	=133	=133	=133	=133	=133
4F	.	4A	.	4f 4c	.	4f	.
4r	.	4r	.	4r	.	4r	.
=134:|!	=134:|!	=134:|!	=134:|!	=134:|!	=134:|!	=134:|!	=134:|!
(4F	.	(4f	.	2r	.	2r	.
4G)	.	4g)	.	.	.	.	.
=135	=135	=135	=135	=135	=135	=135	=135
(<16qF	.	.	.	.	.	.	.
.	.	(<16qf	.	.	.	.	.
8EnL)	.	8enL)	.	4r	.	4r	.
16D	.	16d	.	.	.	.	.
16CJ	.	16cJ	.	.	.	.	.
8F	.	8f	.	8r	.	8r	.
8r	.	8r	.	(8ff	.	(8aa-	.
=136	=136	=136	=136	=136	=136	=136	=136
2r	.	2r	.	8aa-L	.	8cccL	.
.	.	.	.	8ff	.	8aa-	.
.	.	.	.	8aa-y	.	8ccc	.
.	.	.	.	8ffJ	.	8aa-yJ	.
=137	=137	=137	=137	=137	=137	=137	=137
4r	.	4r	.	4aa)	.	4ccc)	.
8r	.	8r	.	8r	.	8r	.
8A-'	.	8c	.	8f	.	8cc	.
=138	=138	=138	=138	=138	=138	=138	=138
8G'L	.	8d'L	.	8fL	.	8bn'L	.
8A-'	.	8c'	.	8f	.	8cc'	.
8G'	.	8d'	.	8f	.	8b'	.
8A-y'J	.	8c'J	.	8fJ	.	8cc'J	.
!!LO:LB
=139	=139	=139	=139	=139	=139	=139	=139
4G	.	4d	.	4f	.	4bn	.
4r	.	4r	.	4r	.	4r	.
=140	=140	=140	=140	=140	=140	=140	=140
2r	.	4r	.	(4c	.	2r	.
.	.	(4F	.	4d)	.	.	.
=141	=141	=141	=141	=141	=141	=141	=141
.	.	.	.	(<16qc	.	.	.
2r	.	4G)	.	8BnL)	.	2r	.
.	.	.	.	16A	.	.	.
.	.	.	.	16GJ	.	.	.
.	.	(<16qF	.	.	.	.	.
.	.	8E-L)	.	8cL	.	.	.
.	.	16D	.	8cJ	.	.	.
.	.	16CJ	.	.	.	.	.
=142	=142	=142	=142	=142	=142	=142	=142
2r	.	4F	.	(8d	.	2r	.
.	.	.	.	4f)	.	.	.
.	.	4G	.	.	.	.	.
.	.	.	.	8Bn	.	.	.
=143	=143	=143	=143	=143	=143	=143	=143
2r	.	4C	.	4c	.	(4cc	.
.	.	4r	.	4r	.	4dd)	.
=144	=144	=144	=144	=144	=144	=144	=144
.	.	.	.	.	.	(<16qcc	.
(4F	.	(8GL	.	(4d	.	8bnL)	.
.	.	8BnJ)	.	.	.	16a	.
.	.	.	.	.	.	16gJ	.
8E)	.	8c	.	8e-y)	.	8ccL	.
8r	.	8r	.	8r	.	8ccJ	.
=145	=145	=145	=145	=145	=145	=145	=145
2r	.	2r	.	2r	.	(4ee-y	.
.	.	.	.	.	.	4ff)	.
=146	=146	=146	=146	=146	=146	=146	=146
.	.	.	.	.	.	(<16qee-y	.
(4A-	.	(8B-L	.	(4f	.	8ddL)	.
.	.	8dJ)	.	.	.	16cc	.
.	.	.	.	.	.	16b-J	.
8G)	.	8e-y	.	8g)	.	8ee-yL	.
8r	.	8r	.	8r	.	8ee-yJ	.
=147	=147	=147	=147	=147	=147	=147	=147
2r	.	2r	.	2r	.	(4gg	.
.	.	.	.	.	.	4aan)	.
=148	=148	=148	=148	=148	=148	=148	=148
.	.	.	.	.	.	(<16qgg	.
(4c	.	(8dL	.	(4an	.	8ff#L)	.
.	.	8f#J)	.	.	.	16een	.
.	.	.	.	.	.	16ddJ	.
8B-y)	.	8g	.	8b-y)	.	8ggL	.
8r	.	8r	.	8r	.	8ggJ	.
=149	=149	=149	=149	=149	=149	=149	=149
2r	.	2r	.	(4gg	.	(4bb-y	.
.	.	.	.	4aa)	.	4ccc)	.
=150	=150	=150	=150	=150	=150	=150	=150
.	.	.	.	(<16qgg	.	.	.
.	.	.	.	.	.	(<16qbb-y	.
2r	.	2r	.	8ff#L)	.	8aaL)	.
.	.	.	.	16een	.	16gg	.
.	.	.	.	16ddJ	.	16ff#J	.
.	.	.	.	8ggL	.	8bb-yL	.
.	.	.	.	8ggJ	.	8bb-yJ	.
=151	=151	=151	=151	=151	=151	=151	=151
2r	.	(4g	.	(4bb-y	.	8ddd	.
.	.	.	.	.	.	4ddd	.
.	.	4a)	.	4ccc)	.	.	.
.	.	.	.	.	.	[8ddd	.
=152	=152	=152	=152	=152	=152	=152	=152
.	.	(<16qg	.	.	.	.	.
.	.	.	.	(<16qbb-y	.	.	.
2r	.	8f#L)	.	8aaL)	.	8ddd]	.
.	.	16en	.	16gg	.	4ddd	.
.	.	16dJ	.	16ff#J	.	.	.
.	.	8gL	.	8bb-yL	.	.	.
.	.	8gJ	.	8bb-yJ	.	[8ddd	.
=153	=153	=153	=153	=153	=153	=153	=153
(4G	.	(4B-y	.	8r	.	8ddd]	.
.	.	.	.	(8ddL	.	4ee	.
4An)	.	4c)	.	8cc)	.	.	.
.	.	.	.	(8e-yJ	.	[8ccc	.
=154	=154	=154	=154	=154	=154	=154	=154
(<16qG	.	.	.	.	.	.	.
.	.	(<16qB-y	.	.	.	.	.
8F#L)	.	8AL)	.	8dL)	.	8ccc]	.
16En	.	16G	.	(8cc	.	4dd	.
16DJ	.	16F#J	.	.	.	.	.
8GL	.	8B-yL	.	8b-y)	.	.	.
8GJ	.	8B-yJ	.	(8dJ	.	[8bb-y	.
=155	=155	=155	=155	=155	=155	=155	=155
(4En	.	(4G	.	8cL)	.	8bb-y]	.
.	.	.	.	(8b-y	.	4cc	.
4Fn)	.	4A-)	.	8a-)	.	.	.
.	.	.	.	(8cJ	.	[8aa-	.
=156	=156	=156	=156	=156	=156	=156	=156
(<16qE-	.	.	.	.	.	.	.
.	.	(<16qG	.	.	.	.	.
8DL)	.	8FnL)	.	8B-yL)	.	8aa-y]	.
16C	.	16E-y	.	(8a-	.	4b-y	.
16BB-yJ	.	16DJ	.	.	.	.	.
8E-yL	.	8GL	.	8g)	.	.	.
8E-yJ	.	8GJ	.	(8B-yJ	.	[8gg	.
=157	=157	=157	=157	=157	=157	=157	=157
(4C	.	(4e-y	.	8A-L)	.	8gg]	.
.	.	.	.	(8g	.	4a-	.
4D)	.	4f)	.	8f)	.	.	.
.	.	.	.	(8A-yJ	.	[8ff	.
!!LO:LB
=158	=158	=158	=158	=158	=158	=158	=158
(<16qC	.	.	.	.	.	.	.
.	.	(<16qe-y	.	.	.	.	.
8BBnL)	.	8dL)	.	8GL)	.	8ff]	.
16AA	.	16c	.	(8f	.	4g	.
16GGJ	.	16BnJ	.	.	.	.	.
8CL	.	8e-yL	.	8e-y)	.	.	.
8CJ	.	8e-yJ	.	8gJ	.	[8ee-y	.
=159	=159	=159	=159	=159	=159	=159	=159
(<16qBB-	.	.	.	.	.	.	.
.	.	(<16qd	.	.	.	.	.
8AAL)	.	8cL)	.	(8fL	.	8ee-y]	.
16GG	.	16B-	.	8e-y	.	4f	.
16FFJ	.	16AJ	.	.	.	.	.
8BB-yL	.	8dL	.	8d	.	.	.
8BB-yJ	.	8dJ	.	8fJ)	.	[8dd	.
=160	=160	=160	=160	=160	=160	=160	=160
(<16qAA	.	.	.	.	.	.	.
.	.	(<16qc	.	.	.	.	.
8GGL)	.	8B-yL)	.	(8enL	.	8dd]	.
16FF	.	16A	.	8d	.	4en	.
16EEnJ	.	16GJ	.	.	.	.	.
8AAL	.	8cL	.	8c	.	.	.
8AAJ	.	8cJ	.	8eJ)	.	[8cc	.
=161	=161	=161	=161	=161	=161	=161	=161
8DD	.	8A	.	8f#	.	8ccL]	.
8r	.	8r	.	8r	.	8d	.
8F#	.	8d	.	8a	.	8aa	.
8r	.	8r	.	8r	.	8ccJ	.
=162	=162	=162	=162	=162	=162	=162	=162
8G	.	8d	.	8g	.	8b-yL	.
8r	.	8r	.	8r	.	8g	.
8E-	.	8G	.	8g	.	8bb-y	.
8r	.	8r	.	8r	.	8cc#J	.
=163	=163	=163	=163	=163	=163	=163	=163
8DL	.	8AL	.	8f#L	.	4dd	.
8D	.	8F#	.	8d	.	.	.
8D	.	8d	.	8ff#	.	4aa	.
8DJ	.	8f#J	.	8ccJ	.	.	.
=164	=164	=164	=164	=164	=164	=164	=164
8DL	.	8gL	.	8b-yL	.	4bb-y	.
8D	.	8B-y	.	8g	.	.	.
8D	.	8G	.	8bb-y	.	4ccc#	.
8DJ	.	8B-yJ	.	8ggJ	.	.	.
=165	=165	=165	=165	=165	=165	=165	=165
8DL	.	4A	.	4ff#	.	4ddd	.
(8D	.	.	.	.	.	.	.
8d)	.	4r	.	4r	.	4r	.
8dJ	.	.	.	.	.	.	.
=166	=166	=166	=166	=166	=166	=166	=166
8dL	.	2r	.	2r	.	2r	.
8d	.	.	.	.	.	.	.
8d	.	.	.	.	.	.	.
8dJ	.	.	.	.	.	.	.
!!LO:LB
=167	=167	=167	=167	=167	=167	=167	=167
[2d	.	8r	.	2r	.	2r	.
.	.	8e-yL	.	.	.	.	.
.	.	8e-y	.	.	.	.	.
.	.	8e-yJ	.	.	.	.	.
=168	=168	=168	=168	=168	=168	=168	=168
2d_	.	8e-yL	.	2r	.	2r	.
.	.	8e-y	.	.	.	.	.
.	.	8e-y	.	.	.	.	.
.	.	8e-yJ	.	.	.	.	.
=169	=169	=169	=169	=169	=169	=169	=169
8dL]	.	[2e-y	.	(2gg	.	2r	.
8d	.	.	.	.	.	.	.
8d	.	.	.	.	.	.	.
8dJ	.	.	.	.	.	.	.
=170	=170	=170	=170	=170	=170	=170	=170
8cL	.	2e-y]	.	2aa-)	.	2r	.
8c	.	.	.	.	.	.	.
8c	.	.	.	.	.	.	.
8cJ	.	.	.	.	.	.	.
=171	=171	=171	=171	=171	=171	=171	=171
.	.	.	.	(<16qgg	.	.	.
8cL	.	8dL	.	8ffnL)	.	2r	.
8c	.	8d	.	16ee-y	.	.	.
.	.	.	.	16ddJ	.	.	.
8B-y	.	8d	.	8ggL	.	.	.
8B-yJ	.	8dJ	.	8ggJ	.	.	.
=172	=172	=172	=172	=172	=172	=172	=172
8B-yL	.	8cL	.	(4ee-y	.	(4gg	.
8B-y	.	8c	.	.	.	.	.
8A-	.	8c	.	4ff)	.	4aa-)	.
8A-yJ	.	8cJ	.	.	.	.	.
=173	=173	=173	=173	=173	=173	=173	=173
.	.	.	.	(<16qee-y	.	.	.
.	.	.	.	.	.	(<16qgg	.
8A-L	.	8B-yL	.	8ddL)	.	8ffL)	.
8A-y	.	8B-y	.	16cc	.	16ee-y	.
.	.	.	.	16b-yJ	.	16ddJ	.
8G	.	8B-y	.	8ee-yL	.	8ggL	.
8GJ	.	8B-yJ	.	8ee-yJ	.	8ggJ	.
=174	=174	=174	=174	=174	=174	=174	=174
8GL	.	8A-L	.	(4cc	.	(4ee-y	.
8G	.	8A-y	.	.	.	.	.
8F	.	8A-y	.	4dd)	.	4ff)	.
8FJ	.	8A-yJ	.	.	.	.	.
=175	=175	=175	=175	=175	=175	=175	=175
.	.	.	.	(<16qcc	.	.	.
.	.	.	.	.	.	(<16qee-y	.
8FL	.	8GL	.	8bnL)	.	8ddL)	.
8FJ	.	8GJ	.	16a	.	16cc	.
.	.	.	.	16gJ	.	16bnJ	.
8E-y	.	8G	.	8cc	.	8ee-y	.
8r	.	8r	.	8r	.	8r	.
=176	=176	=176	=176	=176	=176	=176	=176
2r	.	2r	.	8r	.	8r	.
.	.	.	.	(8ccL	.	(8ee-yL	.
.	.	.	.	8ee-y	.	8gg	.
.	.	.	.	8ccJ)	.	8ee-yJ)	.
!!LO:LB
=177	=177	=177	=177	=177	=177	=177	=177
.	.	.	.	(<16qb-	.	.	.
.	.	.	.	.	.	(<16qdd	.
8E-yL	.	8FL	.	8aL)	.	8ccL)	.
8E-yJ	.	8FJ	.	16g	.	16b-	.
.	.	.	.	16fJ	.	16aJ	.
8D	.	8F	.	8b-y	.	8dd	.
8r	.	8r	.	8r	.	8r	.
=178	=178	=178	=178	=178	=178	=178	=178
8r	.	8r	.	2r	.	2r	.
(8B-yL	.	(8dL	.	.	.	.	.
8d	.	8f	.	.	.	.	.
8B-yJ)	.	8dJ)	.	.	.	.	.
=179	=179	=179	=179	=179	=179	=179	=179
(<16qB-y	.	.	.	.	.	.	.
.	.	(<16qd	.	.	.	.	.
8AL)	.	8cL)	.	4r	.	4r	.
16G	.	16B-y	.	.	.	.	.
16FJ	.	16AJ	.	.	.	.	.
.	.	.	.	(<16qcc	.	.	.
.	.	.	.	.	.	(<16qee-y	.
8B-y	.	8d	.	8b-yL)	.	8ddL)	.
8r	.	8r	.	16a	.	16cc	.
.	.	.	.	16gJ	.	16b-yJ	.
=180	=180	=180	=180	=180	=180	=180	=180
(<16qB-y	.	.	.	.	.	.	.
.	.	(<16qd	.	.	.	.	.
8AL)	.	8cL)	.	8f	.	8ff	.
16G	.	16B-y	.	8r	.	8r	.
16FJ	.	16AJ	.	.	.	.	.
.	.	.	.	(<16qcc	.	.	.
.	.	.	.	.	.	(<16qee-y	.
8B-y	.	8d	.	8b-yL)	.	8ddL)	.
8r	.	8r	.	16a	.	16cc	.
.	.	.	.	16gJ	.	16b-yJ	.
=181	=181	=181	=181	=181	=181	=181	=181
(<16qB-y	.	.	.	.	.	.	.
.	.	(<16qd	.	.	.	.	.
8AL)	.	8cL)	.	8f	.	8ff	.
16G	.	16B-y	.	8r	.	8r	.
16FJ	.	16AJ	.	.	.	.	.
.	.	.	.	(<16qcc	.	.	.
.	.	.	.	.	.	(<16qee-y	.
8B-yL	.	8dL	.	8b-yL)	.	8ddL)	.
8B-yJ	.	8dJ	.	16a	.	16cc	.
.	.	.	.	16gJ	.	16b-yJ	.
=182	=182	=182	=182	=182	=182	=182	=182
8AL	.	8cL	.	8fL	.	8ffL	.
8B-y	.	8d	.	8f	.	8ff	.
8A	.	8c	.	8f	.	8ff	.
8GJ	.	8B-yJ	.	8fJ	.	8ffJ	.
=183	=183	=183	=183	=183	=183	=183	=183
8FL	.	4A	.	4f	.	(2ff	.
8F	.	.	.	.	.	.	.
8F	.	4r	.	4r	.	.	.
8FJ	.	.	.	.	.	.	.
=184	=184	=184	=184	=184	=184	=184	=184
8FL	.	2r	.	(2bn	.	2gg)	.
8F	.	.	.	.	.	.	.
8F	.	.	.	.	.	.	.
8FJ	.	.	.	.	.	.	.
=185	=185	=185	=185	=185	=185	=185	=185
.	.	.	.	.	.	(<16qff	.
8FL	.	(4e-y	.	4cc)	.	8ee-yL)	.
8F	.	.	.	.	.	16dd	.
.	.	.	.	.	.	16ccJ	.
.	.	.	.	(<16qb-	.	.	.
8F	.	4f)	.	8aL)	.	8aa'L	.
8FJ	.	.	.	16g	.	8aa'J	.
.	.	.	.	16fJ	.	.	.
=186	=186	=186	=186	=186	=186	=186	=186
.	.	(<16qe-y	.	.	.	.	.
8FL	.	8dL)	.	(8ffL	.	8bb-y'L	.
8F	.	16c	.	8ddJ)	.	8bb-y'	.
.	.	16B-yJ	.	.	.	.	.
8F	.	8b-y'L	.	8g'L	.	8een'	.
8FJ	.	8b-y'J	.	8g'J	.	8ee'J	.
=187	=187	=187	=187	=187	=187	=187	=187
8FFL	.	4a	.	(2f	.	4ff	.
8FF	.	.	.	.	.	.	.
8FF	.	4r	.	.	.	4r	.
8FFJ	.	.	.	.	.	.	.
=188	=188	=188	=188	=188	=188	=188	=188
8FFL	.	(2B-y	.	2g-)	.	2r	.
8FF	.	.	.	.	.	.	.
8FF	.	.	.	.	.	.	.
8FFJ	.	.	.	.	.	.	.
=189	=189	=189	=189	=189	=189	=189	=189
.	.	.	.	(<16qf	.	.	.
8FFL	.	4c)	.	8e-yL)	.	(4ee-	.
8FF	.	.	.	16d-	.	.	.
.	.	.	.	16cJ	.	.	.
.	.	(<16qB-y	.	.	.	.	.
8FF	.	8AL)	.	8aL	.	4ff)	.
8FFJ	.	16G	.	8aJ	.	.	.
.	.	16FJ	.	.	.	.	.
=190	=190	=190	=190	=190	=190	=190	=190
.	.	.	.	.	.	(<16qee-y	.
8FFL	.	(8fL	.	8b-y'L	.	8dd-L)	.
8FF	.	8d-J)	.	8b-y'	.	16cc	.
.	.	.	.	.	.	16b-yJ	.
8FF	.	8G'L	.	8en'	.	8bb-yL	.
8FFJ	.	8G'J	.	8e'J	.	8bb-yJ	.
=191	=191	=191	=191	=191	=191	=191	=191
8FFL	.	8FL	.	4f	.	4aa	.
(8EnJ	.	(8enJ	.	.	.	.	.
4F)	.	4f)	.	8r	.	8r	.
.	.	.	.	(8a	.	(8cc	.
=192	=192	=192	=192	=192	=192	=192	=192
2r	.	2r	.	8ccL	.	8ee-yL	.
.	.	.	.	8a	.	8cc	.
.	.	.	.	8cc	.	8ee-y	.
.	.	.	.	8aJ	.	8ccJ	.
=193	=193	=193	=193	=193	=193	=193	=193
8r	.	8r	.	4cc)	.	4ee-y)	.
(8G-	.	(8g-	.	.	.	.	.
4F)	.	4f)	.	8r	.	8r	.
.	.	.	.	(8cc	.	(8aa	.
=194	=194	=194	=194	=194	=194	=194	=194
2r	.	2r	.	8ee-yL	.	8cccL	.
.	.	.	.	8cc	.	8aa	.
.	.	.	.	8ee-y	.	8ccc	.
.	.	.	.	8ccJ	.	8aaJ	.
!!LO:LB
=195	=195	=195	=195	=195	=195	=195	=195
8r	.	8r	.	4ee-y)	.	4ccc)	.
(8B-yL	.	(8g-L	.	.	.	.	.
8A	.	8f	.	8r	.	8r	.
8B-yJ	.	8g-yJ	.	(8ee-y	.	(8ccc	.
=196	=196	=196	=196	=196	=196	=196	=196
8AL)	.	8fL)	.	8cccL	.	8eee-yL	.
(8G-	.	(8b-y	.	8ee-y	.	8ccc	.
8F	.	8a	.	8ccc	.	8eee-y	.
8G-yJ	.	8b-yJ	.	8ee-yJ	.	8cccJ	.
=197	=197	=197	=197	=197	=197	=197	=197
4F)	.	4a)	.	4ccc)	.	4eee-y)	.
4r	.	4r	.	4r	.	8r	.
.	.	.	.	.	.	(8f	.
=198	=198	=198	=198	=198	=198	=198	=198
2r	.	2r	.	2r	.	8f#L	.
.	.	.	.	.	.	8g	.
.	.	.	.	.	.	8a-	.
.	.	.	.	.	.	8anJ)	.
=199	=199	=199	=199	=199	=199	=199	=199
2r	.	2r	.	2r	.	(4b-y	.
.	.	.	.	.	.	4cc)	.
=200	=200	=200	=200	=200	=200	=200	=200
.	.	.	.	.	.	(<16qb-y	.
2r	.	2r	.	2r	.	8aL)	.
.	.	.	.	.	.	16g	.
.	.	.	.	.	.	16fJ	.
.	.	.	.	.	.	8b-yL	.
.	.	.	.	.	.	8b-yJ	.
=201	=201	=201	=201	=201	=201	=201	=201
2r	.	8AL	.	8fL	.	8ccL	.
.	.	8A	.	8f	.	8cc	.
.	.	8B-y	.	8f	.	8dd	.
.	.	8B-yJ	.	8fJ	.	8ddJ	.
=202	=202	=202	=202	=202	=202	=202	=202
2r	.	(8dL	.	4f	.	(8ffL	.
.	.	8cJ)	.	.	.	8ee-yJ)	.
.	.	8A	.	4r	.	8cc	.
.	.	8r	.	.	.	8r	.
=203	=203	=203	=203	=203	=203	=203	=203
2r	.	2r	.	2r	.	(4b-y	.
.	.	.	.	.	.	4cc)	.
=204	=204	=204	=204	=204	=204	=204	=204
.	.	.	.	.	.	(<16qb-y	.
2r	.	2r	.	2r	.	8aL)	.
.	.	.	.	.	.	16g	.
.	.	.	.	.	.	16fJ	.
.	.	.	.	.	.	8b-yL	.
.	.	.	.	.	.	8b-yJ	.
!!LO:LB
=205	=205	=205	=205	=205	=205	=205	=205
2r	.	8E-yL	.	8gL	.	8ccL	.
.	.	8E-y	.	8g	.	8cc	.
.	.	8F	.	8A	.	8f	.
.	.	8FJ	.	8AJ	.	8fJ	.
=206	=206	=206	=206	=206	=206	=206	=206
2r	.	4B-y	.	4B-y	.	4d	.
.	.	4r	.	4r	.	4r	.
=207	=207	=207	=207	=207	=207	=207	=207
2r	.	2r	.	(4b-y	.	(4bb-y	.
.	.	.	.	4cc)	.	4ccc)	.
=208	=208	=208	=208	=208	=208	=208	=208
.	.	.	.	(<16qb-y	.	.	.
.	.	.	.	.	.	(<16qbb-y	.
2r	.	2r	.	8aL)	.	8aaL)	.
.	.	.	.	16g	.	16gg	.
.	.	.	.	16fJ	.	16ffJ	.
.	.	.	.	8b-yL	.	8bb-yL	.
.	.	.	.	8b-yJ	.	8bb-yJ	.
=209	=209	=209	=209	=209	=209	=209	=209
8AL	.	8fL	.	8ccL	.	8cccL	.
8A	.	8f	.	8cc	.	8ccc	.
8B-y	.	8f	.	8dd	.	8ddd	.
8B-yJ	.	8fJ	.	8ddJ	.	8dddJ	.
=210	=210	=210	=210	=210	=210	=210	=210
(8dL	.	4f	.	(8ffL	.	(8fffL	.
8cJ)	.	.	.	8ee-yJ)	.	8eee-yJ)	.
8A	.	4r	.	8cc	.	8ccc	.
8r	.	.	.	8r	.	8r	.
=211	=211	=211	=211	=211	=211	=211	=211
2r	.	2r	.	(4b-y	.	(4bb-y	.
.	.	.	.	4cc)	.	4ccc)	.
=212	=212	=212	=212	=212	=212	=212	=212
.	.	.	.	(<16qb-y	.	.	.
.	.	.	.	.	.	(<16qbb-y	.
2r	.	2r	.	8aL)	.	8aaL)	.
.	.	.	.	16g	.	16gg	.
.	.	.	.	16fJ	.	16ffJ	.
.	.	.	.	8b-yL	.	8bb-yL	.
.	.	.	.	8b-yJ	.	8bb-yJ	.
=213	=213	=213	=213	=213	=213	=213	=213
8E-yL	.	8gL	.	8ccL	.	8cccL	.
8E-y	.	8g	.	8cc	.	8ccc	.
8F	.	8A	.	8f	.	8ff	.
8FJ	.	8AJ	.	8fJ	.	8ffJ	.
=214	=214	=214	=214	=214	=214	=214	=214
4BB-y	.	4B-y	.	4d	.	4dd	.
8r	.	8r	.	4r	.	4r	.
(8B-y	.	(8b-y	.	.	.	.	.
!!LO:LB
=215	=215	=215	=215	=215	=215	=215	=215
8cL)	.	8ccL)	.	2r	.	2r	.
8c'	.	8cc'	.	.	.	.	.
8F'	.	8f'	.	.	.	.	.
8F'J	.	8f'J	.	.	.	.	.
=216	=216	=216	=216	=216	=216	=216	=216
4D	.	4d	.	(8fL	.	(8ffL	.
.	.	.	.	8d	.	8dd	.
8r	.	8r	.	8B-yJ)	.	8b-yJ)	.
(8B-y	.	(8b-y	.	8r	.	8r	.
=217	=217	=217	=217	=217	=217	=217	=217
8cL)	.	8ccL)	.	2r	.	2r	.
8c	.	8cc	.	.	.	.	.
8F	.	8f	.	.	.	.	.
8FJ	.	8fJ	.	.	.	.	.
=218	=218	=218	=218	=218	=218	=218	=218
4D	.	4d	.	(8fL	.	(8ffL	.
.	.	.	.	8d	.	8dd	.
8r	.	8r	.	8b-yJ)	.	8bb-yJ)	.
(8B-y	.	(8b-y	.	8r	.	8r	.
=219	=219	=219	=219	=219	=219	=219	=219
8cL)	.	8ccL)	.	2r	.	2r	.
8c	.	8cc	.	.	.	.	.
8F	.	8f	.	.	.	.	.
8FJ	.	8fJ	.	.	.	.	.
=220	=220	=220	=220	=220	=220	=220	=220
4.D	.	4.d	.	(8.fL	.	(8.ffL	.
.	.	.	.	32g	.	32gg	.
.	.	.	.	32aJ	.	32aaJ	.
.	.	.	.	8b-yL)	.	8bb-yL)	.
8D'	.	8f'	.	8a'J	.	8aa'J	.
=221	=221	=221	=221	=221	=221	=221	=221
8E-y'L	.	8e-y'L	.	8g'L	.	8gg'L	.
8F'	.	8d'	.	8f'	.	8ff'	.
8G'	.	8c'	.	8e-y'	.	8ee-y'	.
8En'J	.	8B-y'J	.	8d'J	.	8dd'J	.
=222	=222	=222	=222	=222	=222	=222	=222
4F	.	(8dL	.	(8fL	.	(8ffL	.
.	.	8B-yJ)	.	8dJ)	.	8ddJ)	.
4r	.	8A	.	8cL	.	8ccL	.
.	.	8r	.	(8b-yJ	.	(8bb-yJ	.
=223	=223	=223	=223	=223	=223	=223	=223
2r	.	2r	.	8ccL)	.	8cccL)	.
.	.	.	.	8cc	.	8ccc	.
.	.	.	.	8f	.	8ff	.
.	.	.	.	8fJ	.	8ffJ	.
=224	=224	=224	=224	=224	=224	=224	=224
(8FL	.	(8fL	.	4d	.	4dd	.
8D	.	8d	.	.	.	.	.
8BB-yJ)	.	8B-yJ)	.	8r	.	8r	.
8r	.	8r	.	(8b-y	.	(8bb-y	.
=225	=225	=225	=225	=225	=225	=225	=225
2r	.	2r	.	8ccL)	.	8cccL)	.
.	.	.	.	8cc	.	8ccc	.
.	.	.	.	8f	.	8ff	.
.	.	.	.	8fJ	.	8ffJ	.
=226	=226	=226	=226	=226	=226	=226	=226
(8FL	.	(8fL	.	4d	.	4dd	.
8D	.	8d	.	.	.	.	.
8B-yJ)	.	8b-yJ)	.	8r	.	8r	.
8r	.	8r	.	(8b-y	.	(8bb-y	.
=227	=227	=227	=227	=227	=227	=227	=227
2r	.	2r	.	8ccL)	.	8cccL)	.
.	.	.	.	8cc	.	8ccc	.
.	.	.	.	8f	.	8ff	.
.	.	.	.	8fJ	.	8ffJ	.
=228	=228	=228	=228	=228	=228	=228	=228
(4.Bn	.	[2f	.	[2g	.	(4.dd	.
8c	.	.	.	.	.	8ee-y	.
=229	=229	=229	=229	=229	=229	=229	=229
8BnL	.	2f]	.	2g_	.	8ddL	.
8c	.	.	.	.	.	8ee-y	.
8B	.	.	.	.	.	8dd	.
8GJ)	.	.	.	.	.	8ggJ)	.
=230	=230	=230	=230	=230	=230	=230	=230
2B-	.	(4en	.	(4g_	.	(8ggL	.
.	.	.	.	.	.	24ff	.
.	.	.	.	.	.	24een	.
.	.	.	.	.	.	24ddJ	.
.	.	4e-)	.	4g-)	.	8ccL)	.
.	.	.	.	.	.	(8dd-J	.
=231	=231	=231	=231	=231	=231	=231	=231
(8AL	.	2e-y]	.	[2f	.	8ccL	.
8B-y	.	.	.	.	.	8dd-	.
8A	.	.	.	.	.	8cc	.
8FJ)	.	.	.	.	.	8ffJ)	.
=232	=232	=232	=232	=232	=232	=232	=232
2A-	.	2d	.	2f]	.	(8ffL	.
.	.	.	.	.	.	24ee-	.
.	.	.	.	.	.	24dd	.
.	.	.	.	.	.	24ccJ	.
.	.	.	.	.	.	8b-yL)	.
.	.	.	.	.	.	8b-yJ	.
=233	=233	=233	=233	=233	=233	=233	=233
(4G-	.	[2B-y	.	(4e-y	.	(8b-y	.
.	.	.	.	.	.	4ee-y	.
4F)	.	.	.	4f)	.	.	.
.	.	.	.	.	.	8dd-)	.
=234	=234	=234	=234	=234	=234	=234	=234
(2E-y	.	2B-y_	.	(2g-	.	(8dd-L	.
.	.	.	.	.	.	8cc)	.
.	.	.	.	.	.	(8cc	.
.	.	.	.	.	.	8dd-yJ)	.
!!LO:LB
=235	=235	=235	=235	=235	=235	=235	=235
2En)	.	(8B-yL_	.	2gn)	.	(8dd-L	.
.	.	8c)	.	.	.	8cc)	.
.	.	(8c	.	.	.	(8cc	.
.	.	8d-J)	.	.	.	8b-yJ)	.
=236	=236	=236	=236	=236	=236	=236	=236
4F	.	4c	.	4f	.	(8aL	.
.	.	.	.	.	.	8cc)	.
4r	.	8r	.	8r	.	8cc	.
.	.	(8g-	.	(8b-y	.	8eenJ	.
=237	=237	=237	=237	=237	=237	=237	=237
2r	.	4f)	.	4a)	.	(8ffL	.
.	.	.	.	.	.	8aa)	.
.	.	8r	.	8r	.	8aa	.
.	.	(8g-	.	(8b-y	.	8eenJ	.
=238	=238	=238	=238	=238	=238	=238	=238
4r	.	4f)	.	4a)	.	(8ffL	.
.	.	.	.	.	.	8ccc)	.
8r	.	8r	.	8r	.	8ccc	.
8c'	.	8gn'	.	8b-y'	.	8een'J	.
=239	=239	=239	=239	=239	=239	=239	=239
8F'L	.	8f'L	.	8a'L	.	8ff'L	.
8c'	.	8g'	.	8b-y'	.	8ee'	.
8F'	.	8f'	.	8a'	.	8ff'	.
8c'J	.	8g'J	.	8b-y'J	.	8ee'J	.
=240	=240	=240	=240	=240	=240	=240	=240
4F	.	4f	.	4a	.	(4.ff	.
4r	.	4r	.	4r	.	.	.
.	.	.	.	.	.	8ff#	.
=241	=241	=241	=241	=241	=241	=241	=241
2r	.	2r	.	2r	.	8ggL	.
.	.	.	.	.	.	8ffn	.
.	.	.	.	.	.	8een	.
.	.	.	.	.	.	8ee-J	.
=242	=242	=242	=242	=242	=242	=242	=242
(4.B-y	.	[2f	.	(4.dd	.	4dd)	.
.	.	.	.	.	.	4r	.
8d)	.	.	.	8ff)	.	.	.
=243	=243	=243	=243	=243	=243	=243	=243
8A'L	.	2f_	.	8cc'L	.	2r	.
8A'	.	.	.	8cc'	.	.	.
8A'	.	.	.	8cc'	.	.	.
8Bn'J	.	.	.	8dd'J	.	.	.
=244	=244	=244	=244	=244	=244	=244	=244
(8dL	.	4f]	.	(8ffL	.	8r	.
8cJ)	.	.	.	8ee-yJ)	.	(16ffL	.
.	.	.	.	.	.	16ggJ	.
8c	.	4r	.	8ee-y	.	8aaL)	.
8r	.	.	.	8r	.	(16aa	.
.	.	.	.	.	.	16bb-yJ	.
!!LO:LB
=245	=245	=245	=245	=245	=245	=245	=245
2r	.	2r	.	2r	.	8cccL)	.
.	.	.	.	.	.	(16aa	.
.	.	.	.	.	.	16bb-yJ	.
.	.	.	.	.	.	8cccL)	.
.	.	.	.	.	.	(16ccc	.
.	.	.	.	.	.	16dddJ	.
=246	=246	=246	=246	=246	=246	=246	=246
(4.c	.	[2f	.	(4.ee-y	.	4eee-y)	.
.	.	.	.	.	.	4r	.
8e-y)	.	.	.	8gg)	.	.	.
=247	=247	=247	=247	=247	=247	=247	=247
8B-y'L	.	8fL]	.	8ddL	.	2r	.
8B-y'	.	8f'	.	8dd	.	.	.
8B-y'	.	8f'	.	8dd	.	.	.
8c'J	.	8f'J	.	8ee-yJ	.	.	.
=248	=248	=248	=248	=248	=248	=248	=248
(8e-yL	.	(8aL	.	(8ggL	.	8r	.
8dJ)	.	8b-yJ)	.	8ffJ)	.	(16b-yL	.
.	.	.	.	.	.	16ccJ	.
8d	.	8b-y	.	8ff	.	8ddL)	.
8r	.	8r	.	8r	.	(16dd	.
.	.	.	.	.	.	16ee-yJ	.
=249	=249	=249	=249	=249	=249	=249	=249
2r	.	2r	.	2r	.	8ffL)	.
.	.	.	.	.	.	(16dd	.
.	.	.	.	.	.	16ee-yJ	.
.	.	.	.	.	.	8ffL)	.
.	.	.	.	.	.	(16ff	.
.	.	.	.	.	.	16ggJ	.
=250	=250	=250	=250	=250	=250	=250	=250
2r	.	(4.Bn	.	(4.d	.	4.aa-	.
.	.	8f)	.	8a-)	.	8bn)	.
=251	=251	=251	=251	=251	=251	=251	=251
4r	.	8e-yL	.	8gL	.	(4cc	.
.	.	8e-y	.	8g	.	.	.
4G	.	8d	.	8f	.	4dd)	.
.	.	8dJ	.	8fJ	.	.	.
=252	=252	=252	=252	=252	=252	=252	=252
4C	.	(8BnL	.	(8dL	.	(8ff	.
.	.	8c)	.	8e-y)	.	4ee-y	.
4r	.	8c	.	8e-y	.	.	.
.	.	8e-yJ	.	8g-J	.	8a)	.
=253	=253	=253	=253	=253	=253	=253	=253
4r	.	8dL	.	8fL	.	(4b-	.
.	.	8d	.	8f	.	.	.
4F	.	8c	.	8e-y	.	4cc)	.
.	.	8cJ	.	8e-yJ	.	.	.
=254	=254	=254	=254	=254	=254	=254	=254
4BB-y	.	(8AL	.	(8cL	.	(8ee-yL	.
.	.	8BJ)	.	8dJ)	.	8ddJ)	.
4r	.	8r	.	8r	.	(4ff	.
.	.	8B-y	.	8d	.	.	.
!!LO:LB
=255	=255	=255	=255	=255	=255	=255	=255
2r	.	8r	.	8r	.	4ee-y	.
.	.	8c	.	8e-y	.	.	.
.	.	8r	.	8r	.	4dd)	.
.	.	8d	.	8f	.	.	.
=256	=256	=256	=256	=256	=256	=256	=256
4r	.	(2e-y	.	(2g	.	(8ddL_	.
.	.	.	.	.	.	8cc	.
4E-y	.	.	.	.	.	8dd	.
.	.	.	.	.	.	8ee-yJ)	.
=257	=257	=257	=257	=257	=257	=257	=257
4F	.	4d	.	4f	.	(8ee-y_	.
.	.	.	.	.	.	4b-y	.
4FF	.	4c)	.	4e-y)	.	.	.
.	.	.	.	.	.	8cc)	.
=258	=258	=258	=258	=258	=258	=258	=258
4BB-y	.	(8AL	.	(8c#L	.	(8cc#L	.
.	.	8B-yJ)	.	8dJ)	.	8ddJ)	.
(4BB-y	.	(4D	.	8r	.	8r	.
.	.	.	.	[8f	.	[8ff	.
=259	=259	=259	=259	=259	=259	=259	=259
4C	.	4E-y	.	(8f_	.	(8ff_	.
.	.	.	.	4e-y	.	4ee-y	.
4D)	.	4F)	.	.	.	.	.
.	.	.	.	8d)	.	8dd)	.
=260	=260	=260	=260	=260	=260	=260	=260
(4E-y	.	(4G	.	(8dL_	.	(8ddL_	.
.	.	.	.	8cnJ)	.	8ccnJ)	.
4C	.	4E-y	.	8r	.	8r	.
.	.	.	.	[8g	.	[8gg	.
=261	=261	=261	=261	=261	=261	=261	=261
4D	.	4F	.	(8g_	.	(8gg_	.
.	.	.	.	4f	.	4ff	.
4E-y)	.	4G)	.	.	.	.	.
.	.	.	.	8e-y)	.	8ee-y)	.
=262	=262	=262	=262	=262	=262	=262	=262
(4F	.	(4A-	.	(8e-yL_	.	(8ee-yL_	.
.	.	.	.	8dJ)	.	8ddJ)	.
4D	.	4F	.	8r	.	8r	.
.	.	.	.	[8a-	.	[8aa-	.
=263	=263	=263	=263	=263	=263	=263	=263
4E-y	.	4G	.	(8a-y_	.	(8aa-y_	.
.	.	.	.	4g	.	4gg	.
4F)	.	4A-)	.	.	.	.	.
.	.	.	.	8f)	.	8ff)	.
=264	=264	=264	=264	=264	=264	=264	=264
8GL	.	8B-y	.	(2e-y	.	(2ee-y	.
8G	.	4c	.	.	.	.	.
8G	.	.	.	.	.	.	.
8GJ	.	[8d-	.	.	.	.	.
=265	=265	=265	=265	=265	=265	=265	=265
8GL	.	8d-y]	.	2en)	.	2een)	.
8G	.	4c	.	.	.	.	.
8G	.	.	.	.	.	.	.
8GJ	.	8B-y	.	.	.	.	.
=266	=266	=266	=266	=266	=266	=266	=266
8AL	.	4c	.	(4.f	.	8ffL	.
8A	.	.	.	.	.	8ccJ	.
8A	.	4r	.	.	.	[4ee-	.
8AJ	.	.	.	8g-)	.	.	.
=267	=267	=267	=267	=267	=267	=267	=267
8B-yL	.	(4.f	.	(8fL	.	(4ee-y_	.
8B-y	.	.	.	8aJ	.	.	.
8B-y	.	.	.	4b-y)	.	4dd)	.
8B-yJ	.	8f#)	.	.	.	.	.
=268	=268	=268	=268	=268	=268	=268	=268
8E-yL	.	8gL	.	4r	.	(16ddL_	.
.	.	.	.	.	.	16cc	.
8E-y	.	8g	.	.	.	16bn	.
.	.	.	.	.	.	16ccJ	.
8E-y	.	8g	.	8r	.	16bL	.
.	.	.	.	.	.	16cc	.
8E-yJ	.	8gJ	.	(16gnL	.	16ee-y	.
.	.	.	.	16e-yJ)	.	16ccJ)	.
=269	=269	=269	=269	=269	=269	=269	=269
8FL	.	8fnL	.	(4d	.	(4b-	.
8F	.	8f	.	.	.	.	.
8F#	.	8e-y	.	4c)	.	4a)	.
8F#yJ	.	8e-yJ	.	.	.	.	.
=270	=270	=270	=270	=270	=270	=270	=270
4G	.	4d	.	4B-y	.	8b-yL	.
.	.	.	.	.	.	(16ddd	.
.	.	.	.	.	.	16cccJ	.
4r	.	4r	.	4r	.	16bb-yL	.
.	.	.	.	.	.	16aa	.
.	.	.	.	.	.	16gg	.
.	.	.	.	.	.	16ffJ)	.
=271	=271	=271	=271	=271	=271	=271	=271
8r	.	8r	.	8r	.	2een	.
8CL	.	8gL	.	8b-yL	.	.	.
8C	.	8g	.	8b-y	.	.	.
8CJ	.	8gJ	.	8b-yJ	.	.	.
=272	=272	=272	=272	=272	=272	=272	=272
4F	.	4f	.	4a	.	8r	.
.	.	.	.	.	.	(16cccL	.
.	.	.	.	.	.	16bb-yJ	.
8r	.	8r	.	8r	.	16aaL	.
.	.	.	.	.	.	16gg	.
8F	.	8a	.	8cc	.	16ff	.
.	.	.	.	.	.	16ee-J	.
=273	=273	=273	=273	=273	=273	=273	=273
4G	.	4b-y	.	4b-y	.	8ddL)	.
.	.	.	.	.	.	(16bb-y	.
.	.	.	.	.	.	16aaJ	.
8r	.	8r	.	8r	.	16ggL	.
.	.	.	.	.	.	16ff	.
8D	.	8f	.	8b-y	.	16ee-y	.
.	.	.	.	.	.	16ddJ	.
=274	=274	=274	=274	=274	=274	=274	=274
8E-yL	.	8gL	.	8gL	.	8ccL)	.
8E-y	.	8c	.	8ee-y	.	8gg	.
8F	.	8d	.	8dd	.	8ff	.
8FJ	.	8e-yJ	.	8ccJ	.	8aJ	.
!!LO:LB
=275	=275	=275	=275	=275	=275	=275	=275
4BB-y	.	4d	.	4b-y	.	4b-y	.
4r	.	4r	.	4r	.	8r	.
.	.	.	.	.	.	(8f	.
=276	=276	=276	=276	=276	=276	=276	=276
(4B-y	.	[2f	.	(2b-y	.	4.dd)	.
4F	.	.	.	.	.	.	.
.	.	.	.	.	.	(8b-y	.
=277	=277	=277	=277	=277	=277	=277	=277
4c	.	2f_	.	2a)	.	4.ee-y)	.
4F)	.	.	.	.	.	.	.
.	.	.	.	.	.	(8cc	.
=278	=278	=278	=278	=278	=278	=278	=278
(8dL	cresc.	(8fL_	cresc.	(8b-yL	cresc.	8ffL	cresc.
8B-y	.	8d	.	8dd	.	8bb-y	.
8e-y	.	8g	.	8b-y	.	8gg	.
8cJ)	.	8e-yJ)	.	8ee-yJ)	.	8cccJ)	.
=279	=279	=279	=279	=279	=279	=279	=279
(4f	.	(4.f	.	(4dd	.	(4bb-y	.
4e-y)	.	.	.	4cc)	.	8aaL)	.
.	.	8a)	.	.	.	8ffJ	.
=280	=280	=280	=280	=280	=280	=280	=280
(2d	.	(2b-y	.	[2f	.	(12bb-yL	.
.	.	.	.	.	.	12ddd	.
.	.	.	.	.	.	12cccJ	.
.	.	.	.	.	.	12bb-yL	.
.	.	.	.	.	.	12aa	.
.	.	.	.	.	.	12ggJ	.
=281	=281	=281	=281	=281	=281	=281	=281
2A)	.	2cc)	.	2f_	.	12ffL	.
.	.	.	.	.	.	12een	.
.	.	.	.	.	.	12ffJ	.
.	.	.	.	.	.	12ff#L	.
.	.	.	.	.	.	12gg	.
.	.	.	.	.	.	12ee-J)	.
=282	=282	=282	=282	=282	=282	=282	=282
(4B-y	.	[4b-y	.	(8.fL_	.	(12ddL	.
.	.	.	.	.	.	12ff	.
.	.	.	.	.	.	12b-yJ	.
.	.	.	.	16dJ)	.	.	.
4E-y)	.	(8.b-yL_	.	(12e-yL	.	12ggL	.
.	.	.	.	12g	.	12ee-y	.
.	.	.	.	12e-yJ)	.	12ccJ)	.
.	.	16gJ)	.	.	.	.	.
=283	=283	=283	=283	=283	=283	=283	=283
4F	.	4f	.	(4d	.	(4b-y	.
4r	.	8r	.	8c)	.	8aL)	.
.	.	(8F	.	8r	.	(8fJ	.
!!LO:LB
=284	=284	=284	=284	=284	=284	=284	=284
(4BB-y	.	8d)	.	2f	.	8dd)	.
.	.	(4d	.	.	.	(4dd	.
4FF	.	.	.	.	.	.	.
.	.	8B-y	.	.	.	8b-y	.
=285	=285	=285	=285	=285	=285	=285	=285
4C	.	8e-y)	.	2A	.	8ee-y)	.
.	.	(4e-y	.	.	.	(4ee-y	.
4FF)	.	.	.	.	.	.	.
.	.	8c	.	.	.	8cc	.
=286	=286	=286	=286	=286	=286	=286	=286
(8DL	cresc.	8fL	cresc.	(8B-yL	cresc.	8ffL	cresc.
8BB-y	.	8b-y	.	8d	.	8bb-y	.
8E-y	.	8g	.	8B-y	.	8gg	.
8CJ)	.	8ccJ)	.	8e-yJ)	.	8cccJ)	.
=287	=287	=287	=287	=287	=287	=287	=287
(4F	.	(4b-y	.	(4d	.	(4bb-y	.
4E-y)	.	4a)	.	4c)	.	8aaL)	.
.	.	.	.	.	.	8ffJ	.
=288	=288	=288	=288	=288	=288	=288	=288
2D	.	[2b-y	.	(2f	.	(12bb-yL	.
.	.	.	.	.	.	12ddd	.
.	.	.	.	.	.	12cccJ	.
.	.	.	.	.	.	12bb-yL	.
.	.	.	.	.	.	12aa	.
.	.	.	.	.	.	12bb-yJ)	.
=289	=289	=289	=289	=289	=289	=289	=289
(4E-y	.	4b-y]	.	4e-y)	.	(12ggL	.
.	.	.	.	.	.	12ff#	.
.	.	.	.	.	.	12ggJ	.
4G)	.	4B-y	.	[4b-y	.	12ee-yL	.
.	.	.	.	.	.	12dd	.
.	.	.	.	.	.	12ee-yJ)	.
=290	=290	=290	=290	=290	=290	=290	=290
4F	.	(4.f	.	(12b-yL_	.	(12ddL	.
.	.	.	.	12ee-y	.	12gg	.
.	.	.	.	12ddJ	.	12ffnJ	.
4FF	.	.	.	12ccL	.	12ee-yL	.
.	.	.	.	12b-y	.	12dd	.
.	.	8e-y)	.	.	.	.	.
.	.	.	.	12aJ)	.	12ccJ)	.
=291	=291	=291	=291	=291	=291	=291	=291
4BB-y	.	4d	.	8b-y'L	.	4b-y	.
.	.	.	.	8f'	.	.	.
8r	.	4r	.	8b-y'	.	8r	.
(8BB-y	.	.	.	8dd'J	.	(8bb-y	.
=292	=292	=292	=292	=292	=292	=292	=292
8CL)	.	4r	.	4ee-y	.	8aaL	.
8C'	.	.	.	.	.	8ccc	.
8FF'	.	8r	.	8r	.	8eee-y	.
8FF'J	.	8F	.	(8a	.	8cccJ)	.
!!LO:LB
=293	=293	=293	=293	=293	=293	=293	=293
4DD	.	(8B-yL	.	8b-yL)	.	(8dddL	.
.	.	8A	.	8f'	.	8fffJ)	.
8r	.	8G	.	8b-y'	.	8r	.
(8BB-y	.	8FJ)	.	8dd'J	.	(8bb-y	.
=294	=294	=294	=294	=294	=294	=294	=294
8CL)	.	4.F	.	4ee-y	.	8aaL	.
8C	.	.	.	.	.	8ccc	.
8FF	.	.	.	8r	.	8eee-y	.
8FFJ	.	8F	.	(8a	.	8cccJ)	.
=295	=295	=295	=295	=295	=295	=295	=295
4DD	.	(8B-yL	.	8b-yL)	.	(8dddL	.
.	.	8A	.	8f'	.	8fffJ)	.
8r	.	8G	.	8b-y'	.	8r	.
(8BB-y	.	8FJ)	.	8dd'J	.	(8bb-y	.
=296	=296	=296	=296	=296	=296	=296	=296
8CL)	.	4.F	.	4ee-y	.	8aaL	.
8C	.	.	.	.	.	8ccc	.
8FF	.	.	.	8r	.	8eee-y	.
8FFJ	.	8F	.	8a	.	8cccJ)	.
=297	=297	=297	=297	=297	=297	=297	=297
(4DD	.	(8fL	.	(8b-yL	.	(8bb-yL	.
.	.	8b-y)	.	8dd)	.	8ddd)	.
4EE-y)	.	(8e-y	.	(8g	.	(8gg	.
.	.	8gJ)	.	8b-yJ)	.	8bb-yJ)	.
=298	=298	=298	=298	=298	=298	=298	=298
2FF	.	(4f	.	(4d	.	(4b-y	.
.	.	4e-y)	.	4A)	.	4cc)	.
=299	=299	=299	=299	=299	=299	=299	=299
[4BB-y	.	(4c	.	(4a	.	(4ee-y	.
8BB-y]	.	8B-yL)	.	8b-y)	.	8ddL)	.
8r	.	(8B-yJ	.	8r	.	(8bb-yJ	.
=300	=300	=300	=300	=300	=300	=300	=300
4r	.	8AL	.	4r	.	8cccL)	.
.	.	8c	.	.	.	8ccc'	.
8r	.	8e-y	.	8r	.	8ff'	.
(8AA	.	8cJ)	.	8f	.	8ff'J	.
=301	=301	=301	=301	=301	=301	=301	=301
8BB-yL)	.	(8dL	.	(8b-yL	.	4dd	.
8FF'	.	8fJ)	.	8a	.	.	.
8BB-y'	.	8r	.	8g	.	8r	.
8D'J	.	(8B-y	.	8fJ)	.	(8bb-y	.
=302	=302	=302	=302	=302	=302	=302	=302
4E-y	.	8AL	.	4.f	.	8cccL)	.
.	.	8c	.	.	.	8ccc	.
8r	.	8e-y	.	.	.	8ff	.
(8AA	.	8cJ)	.	8f	.	8ffJ	.
=303	=303	=303	=303	=303	=303	=303	=303
8BB-yL)	.	(8dL	.	(8b-yL	.	4dd	.
8FF'	.	8fJ)	.	8a	.	.	.
8BB-y'	.	8r	.	8g	.	8r	.
8D'J	.	8B-y	.	8fJ)	.	(8bb-y	.
=304	=304	=304	=304	=304	=304	=304	=304
4.E-y	crescendo	(8AL	.	[2f	.	8cccL)	crescendo
.	.	8cJ)	.	.	.	8ccc'	.
.	.	4e-y	.	.	.	8ff'	.
(8AA	.	.	.	.	.	8ff'J	.
=305	=305	=305	=305	=305	=305	=305	=305
4.BB-y)	.	4.d	crescendo	8fL]	crescendo	8dddL	.
.	.	.	.	(8f#J	.	8ddd	.
.	.	.	.	4g)	.	8gg	.
(8BBn	.	(8f	.	.	.	8ggJ	.
=306	=306	=306	=306	=306	=306	=306	=306
4.C)	.	4.e-y)	.	8gL]	.	8eee-yL	.
.	.	.	.	(8gJ	.	8eee-y	.
.	.	.	.	4a)	.	8aa	.
(8C	.	(8e-y	.	.	.	8aaJ	.
=307	=307	=307	=307	=307	=307	=307	=307
8DL)	.	16fL)	.	16b-yL	.	2fff	.
.	.	16f	.	16b-y	.	.	.
8D	.	16f	.	16b-y	.	.	.
.	.	16fJ	.	16b-yJ	.	.	.
8D	.	16fL	.	16b-yL	.	.	.
.	.	16f	.	16b-y	.	.	.
8DJ	.	16f	.	16b-y	.	.	.
.	.	16fJ	.	16b-yJ	.	.	.
=308	=308	=308	=308	=308	=308	=308	=308
8AA-L	.	16FL	.	16B-yL	.	2d	.
.	.	16F	.	16B-y	.	.	.
8AA-y	.	16F	.	16B-y	.	.	.
.	.	16FJ	.	16B-yJ	.	.	.
8AA-y	.	16FL	.	16B-yL	.	.	.
.	.	16F	.	16B-y	.	.	.
8AA-yJ	.	16F	.	16B-y	.	.	.
.	.	16FJ	.	16B-yJ	.	.	.
=309	=309	=309	=309	=309	=309	=309	=309
8GGL	.	16GL	.	16B-yL	.	2e-y	.
.	.	16G	.	16B-y	.	.	.
8GG	.	16G	.	16B-y	.	.	.
.	.	16GJ	.	16B-yJ	.	.	.
8GG	.	16GL	.	16B-yL	.	.	.
.	.	16G	.	16B-y	.	.	.
8GGJ	.	16G	.	16B-y	.	.	.
.	.	16GJ	.	16B-yJ	.	.	.
!!LO:LB
=310	=310	=310	=310	=310	=310	=310	=310
8EEnL	.	16b-yL	.	16dd-L	.	2gg	.
.	.	16b-y	.	16dd-y	.	.	.
8EE	.	16b-y	.	16dd-y	.	.	.
.	.	16b-yJ	.	16dd-yJ	.	.	.
8EE	.	16b-yL	.	16dd-yL	.	.	.
.	.	16b-y	.	16dd-y	.	.	.
8EEJ	.	16b-y	.	16dd-y	.	.	.
.	.	16b-yJ	.	16dd-yJ	.	.	.
=311	=311	=311	=311	=311	=311	=311	=311
8FFL	.	16b-yL	.	16ddnL	.	2ff	.
.	.	16b-y	.	16dd	.	.	.
8FF	.	16b-y	.	16dd	.	.	.
.	.	16b-yJ	.	16ddJ	.	.	.
8FF	.	16b-yL	.	16ddL	.	.	.
.	.	16b-y	.	16dd	.	.	.
8FFJ	.	16b-y	.	16dd	.	.	.
.	.	16b-yJ	.	16ddJ	.	.	.
=312	=312	=312	=312	=312	=312	=312	=312
8FF#L	.	16aL	.	16ccL	.	2ee-y	.
.	.	16a	.	16cc	.	.	.
8FF#y	.	16a	.	16cc	.	.	.
.	.	16aJ	.	16ccJ	.	.	.
8FF#y	.	16aL	.	16ccL	.	.	.
.	.	16a	.	16cc	.	.	.
8FF#yJ	.	16a	.	16cc	.	.	.
.	.	16aJ	.	16ccJ	.	.	.
=313	=313	=313	=313	=313	=313	=313	=313
8GGL	.	4b-y	.	(16b-yL	.	4dd	.
.	.	.	.	16a	.	.	.
8G	.	.	.	16b-y	.	.	.
.	.	.	.	16aJ	.	.	.
8G	.	4r	.	8b-y)	.	8r	.
8GJ	.	.	.	8r	.	8dd	.
=314	=314	=314	=314	=314	=314	=314	=314
8FL	.	(16b-yL	.	(16ddL	.	(8bb-yL	.
.	.	16a	.	16cc#	.	.	.
8F	.	16b-y	.	16dd	.	8aa-J)	.
.	.	16aJ	.	16cc#yJ	.	.	.
8F	.	8b-y)	.	8dd)	.	8r	.
8FJ	.	8r	.	8r	.	8aa-y	.
=315	=315	=315	=315	=315	=315	=315	=315
8E-yL	.	8b-yL	.	(16ee-yL	.	(8ff#L	.
.	.	.	.	16dd	.	.	.
8E-y	.	8b-yJ	.	16ee-y	.	8ggJ)	.
.	.	.	.	16ddJ	.	.	.
8E-y	.	8b-y	.	8ee-y)	.	8r	.
8E-yJ	.	8r	.	8r	.	8gg	.
!!LO:LB
=316	=316	=316	=316	=316	=316	=316	=316
8EnL	.	8gL	.	(16ccL	.	(8aanL	.
.	.	.	.	16bn	.	.	.
8E	.	8gJ	.	16cc	.	8bb-yJ)	.
.	.	.	.	16bJ	.	.	.
8E	.	8g	.	8cc)	.	8r	.
8EJ	.	8r	.	8r	.	8bb-y	.
=317	=317	=317	=317	=317	=317	=317	=317
8FL	.	(16fL	.	(16ddL	.	(8bb-yL	.
.	.	16a	.	16cc#	.	.	.
8F	.	16b-y	.	16dd	.	8ffJ)	.
.	.	16aJ	.	16cc#yJ	.	.	.
8F	.	8b-y)	.	8dd)	.	8r	.
8FJ	.	8r	.	8r	.	8dd	.
=318	=318	=318	=318	=318	=318	=318	=318
8FL	.	(16cL	.	(16aL	.	(8ffL	.
.	.	16d	.	16b-y	.	.	.
8F	.	16c	.	16a	.	8ee-yJ)	.
.	.	16dJ	.	16b-yJ	.	.	.
8F	.	8cL)	.	8aL)	.	8r	.
8FJ	.	8e-yJ	.	8aJ	.	8cc	.
=319	=319	=319	=319	=319	=319	=319	=319
4BB-y	.	4d	.	4b-y	.	4b-y	.
4r	.	4r	.	4r	.	4r	.
=320	=320	=320	=320	=320	=320	=320	=320
2r	.	(4d	.	(4f	.	(4b-y	.
.	.	4e-y	.	4g	.	4cc)	.
=321	=321	=321	=321	=321	=321	=321	=321
.	.	.	.	.	.	(<16qb-y	.
(4F	.	4c	.	4e-y	.	8aL)	.
.	.	.	.	.	.	16g	.
.	.	.	.	.	.	16fJ	.
4G)	.	4B-y)	.	4d)	.	8b-yL	.
.	.	.	.	.	.	8b-yJ	.
=322	=322	=322	=322	=322	=322	=322	=322
8E-yL	.	8gL	.	8b-yL	.	8cc'L	.
8E-y	.	8g	.	8b-y	.	8cc'	.
8F	.	8a-	.	8b-y	.	8dd'	.
8FJ	.	8a-yJ	.	8b-yJ	.	8dd'J	.
=323	=323	=323	=323	=323	=323	=323	=323
4G	.	4g	.	4b-y	.	(4ff	.
4r	.	4r	.	4r	.	8ee-y)	.
.	.	.	.	.	.	8r	.
=324	=324	=324	=324	=324	=324	=324	=324
4r	.	4r	.	4r	.	(4ee-y	.
(4e-y	.	(4an	.	(4cc	.	4gg)	.
!!LO:LB
=325	=325	=325	=325	=325	=325	=325	=325
4d)	.	4b-y)	.	4dd)	.	(8ffL	.
.	.	.	.	.	.	16gg	.
.	.	.	.	.	.	16aaJ	.
8r	.	8r	.	8r	.	8bb-yL)	.
8G	.	8d	.	8b-y	.	(8b-yJ	.
=326	=326	=326	=326	=326	=326	=326	=326
8E-yL	.	8gL	.	8b-yL	.	8ccL)	.
8E-y	.	8g	.	8b-y	.	8cc	.
8F	.	8f	.	8a	.	8ff	.
8FJ	.	8e-yJ	.	8aJ	.	8ffJ	.
=327	=327	=327	=327	=327	=327	=327	=327
4B-y	.	4d	.	4b-y	.	4b-y	.
4r	.	4r	.	8r	.	8r	.
.	.	.	.	(8bb-y	.	(8ddd	.
=328	=328	=328	=328	=328	=328	=328	=328
2r	.	2r	.	8dddL	.	8fffL	.
.	.	.	.	8bb-y	.	8ddd	.
.	.	.	.	8ddd	.	8fff	.
.	.	.	.	8bb-yJ	.	8dddJ	.
=329	=329	=329	=329	=329	=329	=329	=329
8r	.	8r	.	4ddd)	.	4fff)	.
(8A	.	(8c#	.	.	.	.	.
4B-y)	.	4d)	.	8r	.	8r	.
.	.	.	.	(8dd	.	(8bb-y	.
=330	=330	=330	=330	=330	=330	=330	=330
2B-y_	.	2d_	.	8ffL	.	8dddL	.
.	.	.	.	8dd	.	8bb-y	.
.	.	.	.	8ff	.	8ddd	.
.	.	.	.	8ddJ	.	8bb-yJ	.
=331	=331	=331	=331	=331	=331	=331	=331
8B-yL]	.	8dL]	.	4ff)	.	4ddd)	.
(8AAJ	.	(8C#J	.	.	.	.	.
4BB-y)	.	4D)	.	8r	.	8r	.
.	.	.	.	(8b-y	.	(8dd	.
=332	=332	=332	=332	=332	=332	=332	=332
2BB-y_	.	2D_	.	8ddL	.	8ffL	.
.	.	.	.	8b-y	.	8dd	.
.	.	.	.	8dd	.	8ff	.
.	.	.	.	8b-yJ	.	8ddJ	.
=333	=333	=333	=333	=333	=333	=333	=333
4BB-y]	.	4D]	.	4dd)	.	4ff)	.
8r	.	8r	.	8r	.	8r	.
8FF	.	8cc'	.	8ee-y 8f	.	8aa'	.
=334	=334	=334	=334	=334	=334	=334	=334
8BB-yL	.	8b-y'L	.	8ddL 8f	.	8bb-y'L	.
8FF	.	8cc'	.	8ee-y 8f	.	8aa'	.
8BB-y	.	8b-y'	.	8dd 8f	.	8bb-y'	.
8FFJ	.	8cc'J	.	8ee-yJ 8f	.	8aa'J	.
=335	=335	=335	=335	=335	=335	=335	=335
4BB-y	.	4b-y	.	4dd 4f	.	4bb-y	.
4r	.	4r	.	4r	.	4r	.
=:|!	=:|!	=:|!	=:|!	=:|!	=:|!	=:|!	=:|!
*-	*-	*-	*-	*-	*-	*-	*-
!!!RDF**kern: < = below
